; generated by Slic3r 1.36.2-prusa3d-win64 on 2018-01-23 at 16:13:48

; 

; external perimeters extrusion width = 0.45mm
; perimeters extrusion width = 0.45mm
; infill extrusion width = 0.45mm
; solid infill extrusion width = 0.45mm
; top infill extrusion width = 0.21mm

M107
M80 ; turn on PSU
M140 S60
M104 S200 ; start E heating
M17; enable motors
G28 X Y ; Z ; Home
M190 S60
M109 S200
G91
G1 E5 F200
G90
; Filament gcode

G21 ; set units to millimeters
G90 ; use absolute coordinates
M82 ; use absolute distances for extrusion
G92 E0
G1 E-2.00000 F3600.00000
G92 E0
G1 Z0.200 F5400.000
G1 X141.478 Y119.433 F5400.000
G1 E2.00000 F3600.00000
G1 F1200
G1 X142.050 Y118.816 E2.02579
G1 X142.710 Y118.262 E2.05216
G1 X143.397 Y117.818 E2.07719
G1 X144.200 Y117.431 E2.10449
G1 X145.008 Y117.162 E2.13058
G1 X145.864 Y116.994 E2.15728
G1 X146.701 Y116.936 E2.18297
G1 X233.255 Y116.936 E4.83326
G1 X234.653 Y117.085 E4.87629
G1 X235.763 Y117.416 E4.91176
G1 X237.008 Y118.069 E4.95482
G1 X237.919 Y118.787 E4.99032
G1 X238.835 Y119.851 E5.03334
G1 X239.418 Y120.855 E5.06887
G1 X239.879 Y122.182 E5.11189
G1 X240.051 Y123.334 E5.14755
G1 X240.048 Y166.717 E6.47593
G1 X239.940 Y167.544 E6.50148
G1 X239.728 Y168.363 E6.52738
G1 X239.418 Y169.146 E6.55317
G1 X239.012 Y169.888 E6.57909
G1 X238.512 Y170.579 E6.60519
G1 X237.938 Y171.195 E6.63097
G1 X237.285 Y171.741 E6.65702
G1 X236.604 Y172.182 E6.68188
G1 X235.800 Y172.569 E6.70918
G1 X234.992 Y172.838 E6.73527
G1 X234.142 Y173.006 E6.76181
G1 X233.299 Y173.064 E6.78767
G1 X146.625 Y173.063 E9.44161
G1 X145.825 Y173.001 E9.46620
G1 X144.973 Y172.828 E9.49282
G1 X144.172 Y172.558 E9.51869
G1 X143.363 Y172.162 E9.54627
G1 X142.676 Y171.712 E9.57142
G1 X141.999 Y171.134 E9.59867
G1 X141.422 Y170.497 E9.62500
G1 X140.882 Y169.712 E9.65416
G1 X140.226 Y168.213 E9.70426
G1 X140.035 Y167.404 E9.72972
G1 X139.941 Y166.471 E9.75842
G1 X139.945 Y123.391 E11.07753
G1 X140.049 Y122.514 E11.10457
G1 X140.257 Y121.684 E11.13079
G1 X140.570 Y120.879 E11.15725
G1 X140.968 Y120.144 E11.18283
G1 X141.443 Y119.482 E11.20776
G1 F4320
G1 X142.050 Y118.816 E10.49393
G1 F4320
G1 X142.710 Y118.262 E9.81202
G1 F4320
G1 X143.245 Y117.916 E9.30776
G1 E9.20776 F3600.00000
G92 E0
G1 X143.611 Y118.165 F5400.000
G1 E2.00000 F3600.00000
G1 F1200
G1 X144.358 Y117.806 E2.02538
G1 X145.124 Y117.553 E2.05006
G1 X145.918 Y117.397 E2.07486
G1 X146.710 Y117.343 E2.09917
G1 X233.255 Y117.343 E4.74916
G1 X234.571 Y117.483 E4.78969
G1 X235.610 Y117.793 E4.82287
G1 X236.790 Y118.413 E4.86368
G1 X237.641 Y119.085 E4.89690
G1 X238.506 Y120.091 E4.93751
G1 X239.051 Y121.030 E4.97075
G1 X239.486 Y122.288 E5.01153
G1 X239.646 Y123.371 E5.04505
G1 X239.643 Y166.671 E6.37088
G1 X239.344 Y168.229 E6.41946
G1 X238.666 Y169.673 E6.46829
G1 X237.653 Y170.904 E6.51714
G1 X236.389 Y171.835 E6.56520
G1 X235.642 Y172.194 E6.59058
G1 X234.877 Y172.447 E6.61526
G1 X234.076 Y172.604 E6.64022
G1 X233.290 Y172.657 E6.66437
G1 X146.641 Y172.656 E9.31754
G1 X145.085 Y172.437 E9.36564
G1 X144.332 Y172.183 E9.38997
G1 X143.566 Y171.809 E9.41608
G1 X142.925 Y171.390 E9.43955
G1 X142.284 Y170.843 E9.46534
G1 X141.741 Y170.244 E9.49011
G1 X141.228 Y169.495 E9.51789
G1 X140.616 Y168.097 E9.56464
G1 X140.436 Y167.336 E9.58857
G1 X140.348 Y166.463 E9.61544
G1 X140.351 Y123.422 E10.93334
G1 X140.449 Y122.592 E10.95894
G1 X140.644 Y121.811 E10.98360
G1 X140.938 Y121.053 E11.00848
G1 X141.314 Y120.358 E11.03268
G1 X141.794 Y119.690 E11.05786
G1 X142.336 Y119.106 E11.08226
G1 X143.563 Y118.200 E11.12896
G1 F4320
G1 X144.358 Y117.806 E10.42610
G1 F4320
G1 X145.124 Y117.553 E9.78796
G1 F4320
G1 X145.816 Y117.417 E9.22896
G1 E9.12896 F3600.00000
G92 E0
G1 X145.808 Y123.570 F5400.000
G1 E2.00000 F3600.00000
G1 F1200
G1 X145.883 Y123.342 E2.00737
G1 X145.940 Y123.236 E2.01104
G1 X146.094 Y123.051 E2.01841
G1 X146.186 Y122.974 E2.02210
G1 X146.288 Y122.910 E2.02578
G1 X146.511 Y122.821 E2.03314
G1 X146.783 Y122.789 E2.04150
G1 X233.217 Y122.789 E4.68812
G1 X233.489 Y122.821 E4.69649
G1 X233.712 Y122.910 E4.70384
G1 X233.907 Y123.052 E4.71122
G1 X234.060 Y123.236 E4.71857
G1 X234.162 Y123.454 E4.72592
G1 X234.207 Y123.690 E4.73328
G1 X234.207 Y166.310 E6.03831
G1 X234.192 Y166.430 E6.04199
G1 X234.117 Y166.658 E6.04936
G1 X234.060 Y166.764 E6.05304
G1 X233.906 Y166.949 E6.06040
G1 X233.712 Y167.090 E6.06776
G1 X233.489 Y167.179 E6.07512
G1 X233.217 Y167.211 E6.08348
G1 X146.783 Y167.211 E8.73010
G1 X146.511 Y167.179 E8.73846
G1 X146.288 Y167.090 E8.74582
G1 X146.093 Y166.948 E8.75320
G1 X145.940 Y166.764 E8.76054
G1 X145.838 Y166.546 E8.76790
G1 X145.793 Y166.310 E8.77526
G1 X145.801 Y123.630 E10.08212
G1 X145.407 Y123.494 F5400.000
G1 F1200
G1 X145.513 Y123.168 E10.09262
G1 X145.596 Y123.018 E10.09786
G1 X145.814 Y122.754 E10.10836
G1 X145.947 Y122.644 E10.11361
G1 X146.247 Y122.479 E10.12411
G1 X146.410 Y122.426 E10.12936
G1 X146.770 Y122.382 E10.14046
G1 X233.230 Y122.382 E12.78786
G1 X233.590 Y122.426 E12.79897
G1 X233.908 Y122.552 E12.80945
G1 X234.186 Y122.754 E12.81996
G1 X234.404 Y123.018 E12.83043
G1 X234.550 Y123.328 E12.84092
G1 X234.614 Y123.664 E12.85141
G1 X234.614 Y166.336 E14.15801
G1 X234.593 Y166.506 E14.16326
G1 X234.487 Y166.832 E14.17376
G1 X234.404 Y166.982 E14.17901
G1 X234.186 Y167.246 E14.18950
G1 X233.908 Y167.448 E14.19999
G1 X233.590 Y167.574 E14.21048
G1 X233.230 Y167.618 E14.22158
G1 X146.770 Y167.618 E16.86898
G1 X146.410 Y167.574 E16.88008
G1 X146.092 Y167.448 E16.89057
G1 X145.814 Y167.246 E16.90108
G1 X145.596 Y166.982 E16.91155
G1 X145.450 Y166.672 E16.92204
G1 X145.386 Y166.336 E16.93253
G1 X145.386 Y123.664 E18.23913
G1 X145.400 Y123.553 E18.24255
G1 X144.996 Y123.502 F5400.000
G1 F1200
G1 X145.062 Y123.202 E18.25198
G1 X145.144 Y122.994 E18.25880
G1 X145.252 Y122.799 E18.26562
G1 X145.383 Y122.619 E18.27245
G1 X145.535 Y122.456 E18.27927
G1 X145.707 Y122.314 E18.28609
G1 X145.895 Y122.195 E18.29292
G1 X146.097 Y122.100 E18.29974
G1 X146.309 Y122.031 E18.30657
G1 X146.528 Y121.989 E18.31339
G1 X146.757 Y121.975 E18.32043
G1 X233.243 Y121.975 E20.96862
G1 X233.472 Y121.989 E20.97563
G1 X233.691 Y122.031 E20.98249
G1 X233.903 Y122.100 E20.98930
G1 X234.105 Y122.195 E20.99613
G1 X234.293 Y122.314 E21.00295
G1 X234.465 Y122.457 E21.00980
G1 X234.617 Y122.619 E21.01660
G1 X234.748 Y122.799 E21.02343
G1 X234.856 Y122.994 E21.03025
G1 X234.938 Y123.202 E21.03707
G1 X234.993 Y123.417 E21.04390
G1 X235.021 Y123.639 E21.05072
G1 X235.021 Y166.361 E22.35889
G1 X234.993 Y166.583 E22.36571
G1 X234.938 Y166.798 E22.37254
G1 X234.856 Y167.006 E22.37936
G1 X234.748 Y167.201 E22.38618
G1 X234.617 Y167.381 E22.39301
G1 X234.465 Y167.544 E22.39983
G1 X234.293 Y167.686 E22.40665
G1 X234.105 Y167.805 E22.41348
G1 X233.903 Y167.900 E22.42030
G1 X233.691 Y167.969 E22.42713
G1 X233.472 Y168.011 E22.43395
G1 X233.243 Y168.025 E22.44099
G1 X146.757 Y168.025 E25.08918
G1 X146.528 Y168.011 E25.09622
G1 X146.309 Y167.969 E25.10304
G1 X146.097 Y167.900 E25.10986
G1 X145.895 Y167.805 E25.11669
G1 X145.707 Y167.686 E25.12351
G1 X145.535 Y167.543 E25.13036
G1 X145.383 Y167.381 E25.13716
G1 X145.252 Y167.201 E25.14399
G1 X145.144 Y167.006 E25.15081
G1 X145.062 Y166.798 E25.15763
G1 X145.007 Y166.583 E25.16446
G1 X144.979 Y166.361 E25.17128
G1 X144.989 Y123.562 E26.48179
G1 X145.282 Y123.388 F5400.000
G1 F4320
G1 X145.062 Y123.202 E26.19063
G1 F4320
G1 X145.144 Y122.994 E26.01415
G1 F4320
G1 X145.252 Y122.799 E25.83780
G1 F4320
G1 X145.383 Y122.619 E25.66139
G1 F4320
G1 X145.535 Y122.456 E25.48493
G1 F4320
G1 X145.707 Y122.314 E25.30853
G1 F4320
G1 X145.895 Y122.195 E25.13207
G1 F4320
G1 X146.097 Y122.100 E24.95559
G1 F4320
G1 X146.309 Y122.031 E24.77926
G1 F4320
G1 X146.528 Y121.989 E24.60285
G1 F4320
G1 X146.554 Y121.988 E24.58180
G1 E24.48179 F3600.00000
G92 E0
G1 X147.265 Y167.036 F5400.000
G1 E2.00000 F3600.00000
G1 F1200
G1 X146.151 Y165.922 E2.04822
G1 X146.151 Y165.347 E2.06585
G1 X147.657 Y166.853 E2.13107
G1 X148.233 Y166.853 E2.14870
G1 X146.151 Y164.771 E2.23886
G1 X146.151 Y164.195 E2.25649
G1 X148.809 Y166.853 E2.37158
G1 X149.385 Y166.853 E2.38921
G1 X146.151 Y163.619 E2.52923
G1 X146.151 Y163.044 E2.54687
G1 X149.960 Y166.853 E2.71182
G1 X150.536 Y166.853 E2.72945
G1 X146.151 Y162.468 E2.91934
G1 X146.151 Y161.892 E2.93697
G1 X151.112 Y166.853 E3.15180
G1 X151.688 Y166.853 E3.16943
G1 X146.151 Y161.316 E3.40919
G1 X146.151 Y160.741 E3.42682
G1 X152.263 Y166.853 E3.69151
G1 X152.839 Y166.853 E3.70914
G1 X146.151 Y160.165 E3.99877
G1 X146.151 Y159.589 E4.01640
G1 X153.415 Y166.853 E4.33096
G1 X153.991 Y166.853 E4.34859
G1 X146.151 Y159.013 E4.68808
G1 X146.151 Y158.438 E4.70571
G1 X154.566 Y166.853 E5.07014
G1 X155.142 Y166.853 E5.08777
G1 X146.151 Y157.862 E5.47713
G1 X146.151 Y157.286 E5.49476
G1 X155.718 Y166.853 E5.90906
G1 X156.293 Y166.853 E5.92669
G1 X146.151 Y156.710 E6.36592
G1 X146.151 Y156.135 E6.38355
G1 X156.869 Y166.853 E6.84771
G1 X157.445 Y166.853 E6.86534
G1 X146.151 Y155.559 E7.35444
G1 X146.151 Y154.983 E7.37207
G1 X158.021 Y166.853 E7.88610
G1 X158.596 Y166.853 E7.90373
G1 X146.151 Y154.407 E8.44269
G1 X146.151 Y153.832 E8.46032
G1 X159.172 Y166.853 E9.02422
G1 X159.748 Y166.853 E9.04185
G1 X146.151 Y153.256 E9.63068
G1 X146.151 Y152.680 E9.64831
G1 X160.324 Y166.853 E10.26208
G1 X160.899 Y166.853 E10.27971
G1 X146.151 Y152.104 E10.91840
G1 X146.151 Y151.529 E10.93604
G1 X161.475 Y166.853 E11.59967
G1 X162.051 Y166.853 E11.61730
G1 X146.151 Y150.953 E12.30586
G1 X146.151 Y150.377 E12.32350
G1 X162.627 Y166.853 E13.03700
G1 X163.202 Y166.853 E13.05463
G1 X146.151 Y149.801 E13.79306
G1 X146.151 Y149.226 E13.81069
G1 X163.778 Y166.853 E14.57406
G1 X164.354 Y166.853 E14.59169
G1 X146.151 Y148.650 E15.37999
G1 X146.151 Y148.074 E15.39762
G1 X164.930 Y166.853 E16.21086
G1 X165.505 Y166.853 E16.22849
G1 X146.151 Y147.498 E17.06666
G1 X146.151 Y146.923 E17.08429
G1 X166.081 Y166.853 E17.94739
G1 X166.657 Y166.853 E17.96502
G1 X146.151 Y146.347 E18.85306
G1 X146.151 Y145.771 E18.87069
G1 X167.233 Y166.853 E19.78366
G1 X167.808 Y166.853 E19.80129
G1 X146.151 Y145.195 E20.73919
G1 X146.151 Y144.620 E20.75682
G1 X168.384 Y166.853 E21.71966
G1 X168.960 Y166.853 E21.73729
G1 X146.151 Y144.044 E22.72506
G1 X146.151 Y143.468 E22.74269
G1 X169.536 Y166.853 E23.75540
G1 X170.111 Y166.853 E23.77303
G1 X146.151 Y142.892 E24.81067
G1 X146.151 Y142.317 E24.82830
G1 X170.687 Y166.853 E25.89087
G1 X171.263 Y166.853 E25.90850
G1 X146.151 Y141.741 E26.99601
G1 X146.151 Y141.165 E27.01364
G1 X171.839 Y166.853 E28.12608
G1 X172.414 Y166.853 E28.14371
G1 X146.151 Y140.590 E29.28108
G1 X146.151 Y140.014 E29.29871
G1 X172.990 Y166.853 E30.46102
G1 X173.566 Y166.853 E30.47865
G1 X146.151 Y139.438 E31.66589
G1 X146.151 Y138.862 E31.68352
G1 X174.142 Y166.853 E32.89570
G1 X174.717 Y166.853 E32.91333
G1 X146.151 Y138.287 E34.15044
G1 X146.151 Y137.711 E34.16807
G1 X175.293 Y166.853 E35.43011
G1 X175.869 Y166.853 E35.44774
G1 X146.151 Y137.135 E36.73472
G1 X146.151 Y136.559 E36.75235
G1 X176.445 Y166.853 E38.06426
G1 X177.020 Y166.853 E38.08189
G1 X146.151 Y135.984 E39.41874
G1 X146.151 Y135.408 E39.43637
G1 X177.596 Y166.853 E40.79814
G1 X178.172 Y166.853 E40.81578
G1 X146.151 Y134.832 E42.20249
G1 X146.151 Y134.256 E42.22012
G1 X178.748 Y166.853 E43.63176
G1 X179.323 Y166.853 E43.64939
G1 X146.151 Y133.681 E45.08597
G1 X146.151 Y133.105 E45.10360
G1 X179.899 Y166.853 E46.56512
G1 X180.475 Y166.853 E46.58275
G1 X146.151 Y132.529 E48.06919
G1 X146.151 Y131.953 E48.08682
G1 X181.051 Y166.853 E49.59820
G1 X181.626 Y166.853 E49.61584
G1 X146.151 Y131.378 E51.15215
G1 X146.151 Y130.802 E51.16978
G1 X182.202 Y166.853 E52.73103
G1 X182.778 Y166.853 E52.74866
G1 X146.151 Y130.226 E54.33484
G1 X146.151 Y129.650 E54.35247
G1 X183.354 Y166.853 E55.96359
G1 X183.929 Y166.853 E55.98122
G1 X146.151 Y129.075 E57.61727
G1 X146.151 Y128.499 E57.63490
G1 X184.505 Y166.853 E59.29588
G1 X185.081 Y166.853 E59.31351
G1 X146.151 Y127.923 E60.99943
G1 X146.151 Y127.347 E61.01706
G1 X185.657 Y166.853 E62.72791
G1 X186.232 Y166.853 E62.74554
G1 X146.151 Y126.772 E64.48133
G1 X146.151 Y126.196 E64.49896
G1 X186.808 Y166.853 E66.25967
G1 X187.384 Y166.853 E66.27730
G1 X146.151 Y125.620 E68.06296
G1 X146.151 Y125.044 E68.08059
G1 X187.960 Y166.853 E69.89117
G1 X188.535 Y166.853 E69.90880
G1 X146.151 Y124.469 E71.74432
G1 X146.151 Y123.893 E71.76195
G1 X189.111 Y166.853 E73.62241
G1 X189.687 Y166.853 E73.64004
G1 X146.254 Y123.420 E75.52099
G1 X146.341 Y123.314 E75.52517
G1 X146.462 Y123.226 E75.52976
G1 X146.587 Y123.177 E75.53387
G1 X190.263 Y166.853 E77.42533
G1 X190.838 Y166.853 E77.44296
G1 X147.133 Y123.147 E79.33570
G1 X147.709 Y123.147 E79.35333
G1 X191.414 Y166.853 E81.24607
G1 X191.990 Y166.853 E81.26370
G1 X148.285 Y123.148 E83.15643
G1 X148.860 Y123.148 E83.17406
G1 X192.566 Y166.853 E85.06679
G1 X193.141 Y166.853 E85.08442
G1 X149.436 Y123.148 E86.97715
G1 X150.012 Y123.148 E86.99478
G1 X193.717 Y166.853 E88.88750
G1 X194.293 Y166.853 E88.90513
G1 X150.588 Y123.148 E90.79785
G1 X151.164 Y123.148 E90.81549
G1 X194.868 Y166.853 E92.70820
G1 X195.444 Y166.853 E92.72584
G1 X151.740 Y123.148 E94.61855
G1 X152.315 Y123.148 E94.63618
G1 X196.020 Y166.853 E96.52890
G1 X196.596 Y166.853 E96.54653
G1 X152.891 Y123.148 E98.43924
G1 X153.467 Y123.148 E98.45687
G1 X197.171 Y166.853 E100.34958
G1 X197.747 Y166.853 E100.36721
G1 X154.043 Y123.148 E102.25991
G1 X154.619 Y123.148 E102.27754
G1 X198.323 Y166.853 E104.17024
G1 X198.899 Y166.853 E104.18787
G1 X155.194 Y123.148 E106.08057
G1 X155.770 Y123.148 E106.09821
G1 X199.474 Y166.853 E107.99090
G1 X200.050 Y166.853 E108.00853
G1 X156.346 Y123.148 E109.90122
G1 X156.922 Y123.148 E109.91886
G1 X200.626 Y166.853 E111.81155
G1 X201.202 Y166.853 E111.82918
G1 X157.498 Y123.149 E113.72187
G1 X158.073 Y123.149 E113.73950
G1 X201.777 Y166.853 E115.63218
G1 X202.353 Y166.853 E115.64981
G1 X158.649 Y123.149 E117.54250
G1 X159.225 Y123.149 E117.56013
G1 X202.929 Y166.853 E119.45281
G1 X203.505 Y166.853 E119.47044
G1 X159.801 Y123.149 E121.36311
G1 X160.377 Y123.149 E121.38075
G1 X204.080 Y166.853 E123.27342
G1 X204.656 Y166.853 E123.29105
G1 X160.952 Y123.149 E125.18372
G1 X161.528 Y123.149 E125.20136
G1 X205.232 Y166.853 E127.09402
G1 X205.808 Y166.853 E127.11165
G1 X162.104 Y123.149 E129.00432
G1 X162.680 Y123.149 E129.02195
G1 X206.383 Y166.853 E130.91461
G1 X206.959 Y166.853 E130.93225
G1 X163.256 Y123.149 E132.82490
G1 X163.832 Y123.149 E132.84254
G1 X207.535 Y166.853 E134.73519
G1 X208.111 Y166.853 E134.75283
G1 X164.407 Y123.149 E136.64548
G1 X164.983 Y123.149 E136.66311
G1 X208.686 Y166.853 E138.55576
G1 X209.262 Y166.853 E138.57339
G1 X165.559 Y123.149 E140.46604
G1 X166.135 Y123.150 E140.48368
G1 X209.838 Y166.853 E142.37632
G1 X210.414 Y166.853 E142.39395
G1 X166.711 Y123.150 E144.28660
G1 X167.286 Y123.150 E144.30423
G1 X210.989 Y166.853 E146.19687
G1 X211.565 Y166.853 E146.21450
G1 X167.862 Y123.150 E148.10714
G1 X168.438 Y123.150 E148.12477
G1 X212.141 Y166.853 E150.01740
G1 X212.717 Y166.853 E150.03504
G1 X169.014 Y123.150 E151.92767
G1 X169.590 Y123.150 E151.94530
G1 X213.292 Y166.853 E153.83793
G1 X213.868 Y166.853 E153.85556
G1 X170.165 Y123.150 E155.74819
G1 X170.741 Y123.150 E155.76582
G1 X214.444 Y166.853 E157.65844
G1 X215.020 Y166.853 E157.67607
G1 X171.317 Y123.150 E159.56869
G1 X171.893 Y123.150 E159.58633
G1 X215.595 Y166.853 E161.47895
G1 X216.171 Y166.853 E161.49658
G1 X172.469 Y123.150 E163.38919
G1 X173.044 Y123.150 E163.40682
G1 X216.747 Y166.853 E165.29944
G1 X217.323 Y166.853 E165.31707
G1 X173.620 Y123.150 E167.20968
G1 X174.196 Y123.150 E167.22731
G1 X217.898 Y166.853 E169.11992
G1 X218.474 Y166.853 E169.13755
G1 X174.772 Y123.150 E171.03015
G1 X175.348 Y123.151 E171.04779
G1 X219.050 Y166.853 E172.94039
G1 X219.626 Y166.853 E172.95802
G1 X175.924 Y123.151 E174.85062
G1 X176.499 Y123.151 E174.86825
G1 X220.201 Y166.853 E176.76085
G1 X220.777 Y166.853 E176.77848
G1 X177.075 Y123.151 E178.67107
G1 X177.651 Y123.151 E178.68870
G1 X221.353 Y166.853 E180.58129
G1 X221.929 Y166.853 E180.59892
