; generated by Slic3r 1.36.2-prusa3d-win64 on 2018-01-23 at 16:13:05

; 

; external perimeters extrusion width = 0.45mm
; perimeters extrusion width = 0.45mm
; infill extrusion width = 0.45mm
; solid infill extrusion width = 0.45mm
; top infill extrusion width = 0.21mm

M107
M80 ; turn on PSU
M140 S60
M104 S200 ; start E heating
M17; enable motors
G28 X Y ; Z ; Home
M190 S60
M109 S200
G91
G1 E5 F200
G90
; Filament gcode

G21 ; set units to millimeters
G90 ; use absolute coordinates
M82 ; use absolute distances for extrusion
G92 E0
G1 E-2.00000 F3600.00000
G92 E0
G1 Z0.200 F5400.000
G1 X158.477 Y130.109 F5400.000
G1 E2.00000 F3600.00000
G1 F1200
G1 X159.714 Y129.976 E2.03810
G1 X220.255 Y129.976 E3.89187
G1 X221.331 Y130.072 E3.92494
G1 X222.550 Y130.413 E3.96370
G1 X223.521 Y130.898 E3.99694
G1 X224.525 Y131.658 E4.03550
G1 X225.256 Y132.470 E4.06895
G1 X225.911 Y133.545 E4.10750
G1 X226.291 Y134.563 E4.14076
G1 X226.507 Y135.788 E4.17883
G1 X226.521 Y153.858 E4.73215
G1 X226.433 Y154.814 E4.76155
G1 X226.238 Y155.624 E4.78705
G1 X225.952 Y156.368 E4.81146
G1 X225.567 Y157.081 E4.83627
G1 X225.107 Y157.722 E4.86043
G1 X224.557 Y158.312 E4.88514
G1 X223.945 Y158.821 E4.90949
G1 X223.272 Y159.248 E4.93391
G1 X222.544 Y159.590 E4.95854
G1 X221.523 Y159.891 E4.99113
G1 X220.286 Y160.024 E5.02923
G1 X159.495 Y160.017 E6.89063
G1 X158.468 Y159.890 E6.92234
G1 X157.638 Y159.657 E6.94873
G1 X156.803 Y159.289 E6.97668
G1 X156.070 Y158.831 E7.00314
G1 X155.404 Y158.275 E7.02971
G1 X154.796 Y157.599 E7.05753
G1 X154.314 Y156.879 E7.08406
G1 X153.879 Y155.957 E7.11528
G1 X153.592 Y154.951 E7.14733
G1 X153.479 Y153.920 E7.17907
G1 X153.479 Y136.142 E7.72343
G1 X153.548 Y135.309 E7.74902
G1 X153.740 Y134.449 E7.77600
G1 X154.021 Y133.692 E7.80075
G1 X154.410 Y132.956 E7.82622
G1 X154.863 Y132.316 E7.85023
G1 X155.423 Y131.706 E7.87559
G1 X156.042 Y131.189 E7.90027
G1 X156.723 Y130.754 E7.92502
G1 X157.456 Y130.410 E7.94982
G1 X158.419 Y130.126 E7.98057
G1 X157.632 Y130.779 F5400.000
G1 F1200
G1 X158.745 Y130.472 E8.01594
G1 X159.723 Y130.383 E8.04600
G1 X220.255 Y130.383 E9.89949
G1 X221.260 Y130.473 E9.93038
G1 X222.403 Y130.792 E9.96671
G1 X223.307 Y131.245 E9.99768
G1 X224.253 Y131.961 E10.03400
G1 X224.929 Y132.714 E10.06500
G1 X225.547 Y133.727 E10.10132
G1 X225.900 Y134.675 E10.13230
G1 X226.102 Y135.834 E10.16832
G1 X226.114 Y153.857 E10.72020
G1 X226.036 Y154.719 E10.74670
G1 X225.852 Y155.493 E10.77105
G1 X225.586 Y156.189 E10.79388
G1 X224.791 Y157.465 E10.83991
G1 X223.696 Y158.499 E10.88603
G1 X222.368 Y159.221 E10.93230
G1 X221.255 Y159.528 E10.96767
G1 X220.277 Y159.617 E10.99773
G1 X159.527 Y159.611 E12.85789
G1 X158.550 Y159.491 E12.88803
G1 X157.772 Y159.273 E12.91276
G1 X156.989 Y158.927 E12.93898
G1 X156.303 Y158.497 E12.96377
G1 X155.679 Y157.975 E12.98868
G1 X155.111 Y157.340 E13.01477
G1 X154.663 Y156.669 E13.03947
G1 X154.248 Y155.784 E13.06940
G1 X153.988 Y154.856 E13.09891
G1 X153.886 Y153.907 E13.12813
G1 X153.886 Y136.143 E13.67208
G1 X153.949 Y135.384 E13.69540
G1 X154.130 Y134.567 E13.72101
G1 X154.393 Y133.858 E13.74416
G1 X155.183 Y132.567 E13.79052
G1 X155.709 Y131.997 E13.81427
G1 X156.292 Y131.510 E13.83751
G1 X157.579 Y130.807 E13.88242
G1 F4320
G1 X158.745 Y130.472 E12.92160
G1 F4320
G1 X159.723 Y130.383 E12.14446
G1 F4320
G1 X159.928 Y130.383 E11.98242
G1 E11.88242 F3600.00000
G92 E0
G1 X170.104 Y138.704 F5400.000
G1 E2.00000 F3600.00000
G1 F1200
G1 X198.896 Y138.704 E2.88163
G1 X198.896 Y150.496 E3.24272
G1 X170.104 Y150.496 E4.12434
G1 X170.104 Y138.764 E4.48359
G1 X170.511 Y139.111 F5400.000
G1 F1200
G1 X198.489 Y139.111 E5.34029
G1 X198.489 Y150.089 E5.67645
G1 X170.511 Y150.089 E6.53315
G1 X170.511 Y139.171 E6.86747
G1 X170.918 Y139.518 F5400.000
G1 F1200
G1 X198.082 Y139.518 E7.69924
G1 X198.082 Y149.682 E8.01047
G1 X170.918 Y149.682 E8.84224
G1 X170.918 Y139.578 E9.15163
G1 X170.760 Y139.150 F5400.000
G1 F4320
G1 X173.318 Y139.573 E7.25163
G1 E7.15163 F3600.00000
G92 E0
G1 X208.368 Y144.309 F5400.000
G1 E2.00000 F3600.00000
G1 F1200
G1 X208.441 Y143.730 E2.01785
G1 X208.586 Y143.166 E2.03569
G1 X208.800 Y142.624 E2.05354
G1 X209.081 Y142.113 E2.07139
G1 X209.424 Y141.642 E2.08923
G1 X209.823 Y141.217 E2.10708
G1 X210.272 Y140.845 E2.12493
G1 X210.764 Y140.533 E2.14277
G1 X211.291 Y140.285 E2.16062
G1 X211.851 Y140.103 E2.17862
G1 X212.461 Y139.993 E2.19761
G1 X213.000 Y139.959 E2.21415
G1 X213.582 Y139.995 E2.23200
G1 X214.154 Y140.105 E2.24985
G1 X214.709 Y140.285 E2.26769
G1 X215.236 Y140.533 E2.28554
G1 X215.728 Y140.845 E2.30338
G1 X216.177 Y141.217 E2.32123
G1 X216.576 Y141.642 E2.33908
G1 X216.919 Y142.113 E2.35692
G1 X217.200 Y142.624 E2.37477
G1 X217.414 Y143.166 E2.39262
G1 X217.559 Y143.730 E2.41047
G1 X217.632 Y144.309 E2.42831
G1 X217.632 Y144.891 E2.44616
G1 X217.559 Y145.470 E2.46401
G1 X217.414 Y146.034 E2.48185
G1 X217.200 Y146.576 E2.49970
G1 X216.939 Y147.050 E2.51624
G1 X216.580 Y147.555 E2.53523
G1 X216.177 Y147.983 E2.55323
G1 X215.728 Y148.355 E2.57108
G1 X215.236 Y148.667 E2.58893
G1 X214.709 Y148.915 E2.60677
G1 X214.154 Y149.095 E2.62462
G1 X213.582 Y149.205 E2.64246
G1 X213.000 Y149.241 E2.66031
G1 X212.418 Y149.205 E2.67816
G1 X211.846 Y149.095 E2.69601
G1 X211.291 Y148.915 E2.71385
G1 X210.764 Y148.667 E2.73170
G1 X210.272 Y148.355 E2.74954
G1 X209.823 Y147.983 E2.76739
G1 X209.424 Y147.558 E2.78524
G1 X209.081 Y147.087 E2.80308
G1 X208.800 Y146.576 E2.82093
G1 X208.586 Y146.034 E2.83878
G1 X208.441 Y145.470 E2.85663
G1 X208.368 Y144.891 E2.87447
G1 X208.368 Y144.369 E2.89048
G1 X208.775 Y144.369 F5400.000
G1 F1200
G1 X208.842 Y143.807 E2.90781
G1 X208.974 Y143.292 E2.92408
G1 X209.170 Y142.798 E2.94036
G1 X209.426 Y142.332 E2.95664
G1 X209.738 Y141.902 E2.97292
G1 X210.102 Y141.514 E2.98920
G1 X210.512 Y141.175 E3.00548
G1 X210.961 Y140.890 E3.02175
G1 X211.442 Y140.664 E3.03803
G1 X211.950 Y140.499 E3.05440
G1 X212.510 Y140.397 E3.07183
G1 X213.000 Y140.367 E3.08686
G1 X213.531 Y140.400 E3.10314
G1 X214.053 Y140.500 E3.11942
G1 X214.558 Y140.664 E3.13569
G1 X215.039 Y140.890 E3.15197
G1 X215.488 Y141.175 E3.16825
G1 X215.898 Y141.514 E3.18453
G1 X216.262 Y141.902 E3.20081
G1 X216.574 Y142.332 E3.21708
G1 X216.830 Y142.798 E3.23336
G1 X217.026 Y143.292 E3.24964
G1 X217.158 Y143.807 E3.26592
G1 X217.225 Y144.334 E3.28220
G1 X217.225 Y144.866 E3.29848
G1 X217.158 Y145.393 E3.31476
G1 X217.026 Y145.908 E3.33103
G1 X216.830 Y146.402 E3.34731
G1 X216.594 Y146.833 E3.36234
G1 X216.264 Y147.296 E3.37977
G1 X215.898 Y147.686 E3.39614
G1 X215.488 Y148.025 E3.41242
G1 X215.039 Y148.310 E3.42870
G1 X214.558 Y148.536 E3.44497
G1 X214.053 Y148.700 E3.46125
G1 X213.531 Y148.800 E3.47753
G1 X213.000 Y148.833 E3.49381
G1 X212.469 Y148.800 E3.51009
G1 X211.947 Y148.700 E3.52637
G1 X211.442 Y148.536 E3.54264
G1 X210.961 Y148.310 E3.55892
G1 X210.512 Y148.025 E3.57520
G1 X210.102 Y147.686 E3.59148
G1 X209.738 Y147.298 E3.60776
G1 X209.426 Y146.868 E3.62403
G1 X209.170 Y146.402 E3.64031
G1 X208.974 Y145.908 E3.65659
G1 X208.842 Y145.393 E3.67287
G1 X208.775 Y144.866 E3.68915
G1 X208.775 Y144.429 E3.70254
G1 X209.182 Y144.429 F5400.000
G1 F1200
G1 X209.242 Y143.883 E3.71934
G1 X209.362 Y143.418 E3.73405
G1 X209.539 Y142.971 E3.74876
G1 X209.770 Y142.550 E3.76347
G1 X210.052 Y142.162 E3.77818
G1 X210.381 Y141.811 E3.79289
G1 X210.751 Y141.505 E3.80760
G1 X211.157 Y141.248 E3.82231
G1 X211.592 Y141.043 E3.83702
G1 X212.050 Y140.894 E3.85176
G1 X212.559 Y140.802 E3.86761
G1 X213.000 Y140.775 E3.88114
G1 X213.479 Y140.805 E3.89585
G1 X213.951 Y140.895 E3.91056
G1 X214.408 Y141.043 E3.92527
G1 X214.843 Y141.248 E3.93998
G1 X215.249 Y141.505 E3.95469
G1 X215.619 Y141.811 E3.96940
G1 X215.948 Y142.162 E3.98411
G1 X216.230 Y142.550 E3.99882
G1 X216.461 Y142.971 E4.01353
G1 X216.638 Y143.418 E4.02824
G1 X216.758 Y143.883 E4.04295
G1 X216.818 Y144.360 E4.05766
G1 X216.818 Y144.840 E4.07237
G1 X216.758 Y145.317 E4.08708
G1 X216.638 Y145.782 E4.10179
G1 X216.461 Y146.229 E4.11650
G1 X216.249 Y146.616 E4.13002
G1 X215.948 Y147.038 E4.14588
G1 X215.619 Y147.389 E4.16062
G1 X215.249 Y147.695 E4.17533
G1 X214.843 Y147.952 E4.19004
G1 X214.408 Y148.157 E4.20475
G1 X213.951 Y148.305 E4.21946
G1 X213.479 Y148.395 E4.23417
G1 X213.000 Y148.425 E4.24888
G1 X212.521 Y148.395 E4.26359
G1 X212.049 Y148.305 E4.27830
G1 X211.592 Y148.157 E4.29301
G1 X211.157 Y147.952 E4.30772
G1 X210.751 Y147.695 E4.32243
G1 X210.381 Y147.389 E4.33714
G1 X210.052 Y147.038 E4.35184
G1 X209.770 Y146.650 E4.36656
G1 X209.539 Y146.229 E4.38127
G1 X209.362 Y145.782 E4.39598
G1 X209.242 Y145.317 E4.41069
G1 X209.182 Y144.840 E4.42540
G1 X209.182 Y144.489 E4.43616
G1 X208.846 Y144.211 F5400.000
G1 F4320
G1 X209.242 Y143.883 E3.95456
G1 F4320
G1 X209.362 Y143.418 E3.57426
G1 F4320
G1 X209.539 Y142.971 E3.19394
G1 F4320
G1 X209.770 Y142.550 E2.81360
G1 F4320
G1 X209.976 Y142.267 E2.53616
G1 E2.43616 F3600.00000
G92 E0
G1 X220.532 Y135.949 F5400.000
G1 E2.00000 F3600.00000
G1 F1200
G1 X220.623 Y136.058 E2.00434
G1 X220.668 Y136.254 E2.01049
G1 X220.668 Y153.746 E2.54609
G1 X220.639 Y153.901 E2.55091
G1 X220.554 Y154.035 E2.55579
G1 X220.449 Y154.112 E2.55976
G1 X220.353 Y154.150 E2.56293
G1 X220.185 Y154.171 E2.56811
G1 X159.783 Y154.171 E4.41762
G1 X159.598 Y154.134 E4.42338
G1 X159.484 Y154.071 E4.42736
G1 X159.402 Y153.971 E4.43133
G1 X159.358 Y153.878 E4.43449
G1 X159.332 Y153.744 E4.43867
G1 X159.332 Y136.212 E4.97548
G1 X159.377 Y136.074 E4.97991
G1 X159.446 Y135.965 E4.98389
G1 X159.551 Y135.888 E4.98786
G1 X159.647 Y135.850 E4.99103
G1 X159.815 Y135.829 E4.99622
G1 X220.207 Y135.831 E6.84541
G1 X220.383 Y135.854 E6.85084
G1 X220.484 Y135.914 E6.85443
G1 X220.996 Y135.894 F5400.000
G1 F1200
G1 X221.034 Y135.994 E6.85772
G1 X221.075 Y136.217 E6.86465
G1 X221.075 Y153.783 E7.40254
G1 X221.003 Y154.087 E7.41211
G1 X220.873 Y154.292 E7.41951
G1 X220.646 Y154.471 E7.42837
G1 X220.455 Y154.547 E7.43469
G1 X220.210 Y154.578 E7.44223
G1 X159.770 Y154.578 E9.29291
G1 X159.666 Y154.571 E9.29609
G1 X159.447 Y154.515 E9.30302
G1 X159.249 Y154.406 E9.30995
G1 X159.055 Y154.191 E9.31881
G1 X158.967 Y154.004 E9.32512
G1 X158.925 Y153.782 E9.33205
G1 X158.925 Y136.198 E9.87047
G1 X159.005 Y135.900 E9.87994
G1 X159.127 Y135.708 E9.88687
G1 X159.354 Y135.529 E9.89573
G1 X159.545 Y135.453 E9.90204
G1 X159.790 Y135.422 E9.90959
G1 X220.234 Y135.424 E11.76038
G1 X220.473 Y135.455 E11.76777
G1 X220.630 Y135.517 E11.77294
G1 X220.813 Y135.650 E11.77987
G1 X220.967 Y135.841 E11.78738
G1 X221.366 Y135.723 F5400.000
G1 F1200
G1 X221.427 Y135.884 E11.79265
G1 X221.482 Y136.179 E11.80184
G1 X221.482 Y153.821 E12.34203
G1 X221.427 Y154.116 E12.35122
G1 X221.369 Y154.270 E12.35628
G1 X221.196 Y154.542 E12.36613
G1 X221.100 Y154.645 E12.37044
G1 X220.844 Y154.831 E12.38013
G1 X220.557 Y154.944 E12.38959
G1 X220.236 Y154.985 E12.39950
G1 X159.757 Y154.985 E14.25135
G1 X159.602 Y154.975 E14.25610
G1 X159.296 Y154.897 E14.26578
G1 X159.019 Y154.744 E14.27547
G1 X158.910 Y154.654 E14.27978
G1 X158.709 Y154.411 E14.28946
G1 X158.577 Y154.131 E14.29893
G1 X158.518 Y153.820 E14.30861
G1 X158.518 Y136.172 E14.84899
G1 X158.536 Y136.026 E14.85352
G1 X158.634 Y135.725 E14.86320
G1 X158.804 Y135.458 E14.87289
G1 X158.900 Y135.355 E14.87720
G1 X159.156 Y135.169 E14.88688
G1 X159.443 Y135.056 E14.89635
G1 X159.764 Y135.015 E14.90625
G1 X220.260 Y135.017 E16.75864
G1 X220.563 Y135.056 E16.76800
G1 X220.838 Y135.165 E16.77705
G1 X221.094 Y135.351 E16.78674
G1 X221.296 Y135.595 E16.79642
G1 X221.337 Y135.670 E16.79906
G1 X221.270 Y135.866 F5400.000
G1 X220.493 Y136.998 F5400.000
G1 F1200
G1 X219.683 Y136.189 E16.83432
G1 X219.105 Y136.189 E16.85214
G1 X220.310 Y137.394 E16.90463
G1 X220.310 Y137.973 E16.92246
G1 X218.526 Y136.189 E17.00016
G1 X217.947 Y136.189 E17.01799
G1 X220.310 Y138.552 E17.12090
G1 X220.310 Y139.131 E17.13873
G1 X217.368 Y136.189 E17.26686
G1 X216.789 Y136.189 E17.28469
G1 X220.310 Y139.710 E17.43802
G1 X220.310 Y140.289 E17.45585
G1 X216.210 Y136.189 E17.63440
G1 X215.631 Y136.189 E17.65223
G1 X220.310 Y140.867 E17.85599
G1 X220.310 Y141.446 E17.87382
G1 X215.052 Y136.189 E18.10279
G1 X214.473 Y136.189 E18.12062
G1 X220.310 Y142.025 E18.37480
G1 X220.310 Y142.604 E18.39263
G1 X213.894 Y136.189 E18.67203
G1 X213.316 Y136.189 E18.68986
G1 X220.310 Y143.183 E18.99447
G1 X220.310 Y143.762 E19.01230
G1 X212.737 Y136.189 E19.34212
G1 X212.158 Y136.189 E19.35995
G1 X220.310 Y144.341 E19.71498
G1 X220.310 Y144.920 E19.73281
G1 X211.579 Y136.189 E20.11305
G1 X211.000 Y136.189 E20.13088
G1 X214.725 Y139.913 E20.29309
G1 X214.244 Y139.757 E20.30867
G1 X213.929 Y139.697 E20.31852
G1 X210.421 Y136.189 E20.47131
G1 X209.842 Y136.189 E20.48914
G1 X213.270 Y139.617 E20.63845
G1 X213.000 Y139.600 E20.64679
G1 X212.694 Y139.619 E20.65624
G1 X209.263 Y136.189 E20.80564
G1 X208.684 Y136.189 E20.82347
G1 X212.176 Y139.680 E20.97553
G1 X211.694 Y139.777 E20.99067
G1 X208.105 Y136.189 E21.14696
G1 X207.527 Y136.189 E21.16479
G1 X211.257 Y139.919 E21.32727
G1 X210.854 Y140.095 E21.34081
G1 X206.948 Y136.189 E21.51093
G1 X206.369 Y136.189 E21.52876
G1 X210.473 Y140.293 E21.70752
G1 X210.119 Y140.518 E21.72044
G1 X205.790 Y136.189 E21.90899
G1 X205.211 Y136.189 E21.92682
G1 X209.796 Y140.774 E22.12651
G1 X209.491 Y141.047 E22.13914
G1 X204.632 Y136.189 E22.35074
G1 X204.053 Y136.189 E22.36857
G1 X209.210 Y141.346 E22.59317
G1 X208.959 Y141.673 E22.60589
G1 X203.474 Y136.189 E22.84473
G1 X202.895 Y136.188 E22.86256
G1 X208.725 Y142.018 E23.11644
G1 X208.519 Y142.391 E23.12957
G1 X202.317 Y136.188 E23.39972
G1 X201.738 Y136.188 E23.41755
G1 X208.347 Y142.797 E23.70538
G1 X208.245 Y143.055 E23.71391
G1 X208.200 Y143.230 E23.71946
G1 X201.159 Y136.188 E24.02611
G1 X200.580 Y136.188 E24.04394
G1 X208.085 Y143.693 E24.37079
G1 X208.020 Y144.207 E24.38674
G1 X200.001 Y136.188 E24.73598
G1 X199.422 Y136.188 E24.75381
G1 X208.010 Y144.776 E25.12782
G1 X208.010 Y144.914 E25.13206
G1 X208.074 Y145.419 E25.14773
G1 X198.843 Y136.188 E25.54974
G1 X198.264 Y136.188 E25.56756
G1 X208.586 Y146.510 E26.01710
G1 F4320
G1 X206.889 Y144.813 E24.11710
G1 E24.01710 F3600.00000
G92 E0
G1 X211.090 Y149.014 F5400.000
G1 E2.00000 F3600.00000
G1 F1200
G1 X215.888 Y153.813 E2.20900
G1 X216.467 Y153.813 E2.22683
G1 X212.178 Y149.523 E2.41363
G1 X212.373 Y149.561 E2.41975
G1 X212.823 Y149.589 E2.43361
G1 X217.046 Y153.813 E2.61756
G1 X217.625 Y153.813 E2.63539
G1 X213.388 Y149.576 E2.81991
G1 X213.627 Y149.561 E2.82727
G1 X213.900 Y149.509 E2.83584
G1 X218.204 Y153.813 E3.02329
G1 X218.783 Y153.813 E3.04112
G1 X214.372 Y149.401 E3.23324
G1 X214.809 Y149.259 E3.24738
G1 X219.362 Y153.813 E3.44568
G1 X219.941 Y153.813 E3.46351
G1 X215.205 Y149.077 E3.66974
G1 X215.409 Y148.982 E3.67666
G1 X215.580 Y148.873 E3.68291
G1 X220.310 Y153.603 E3.88890
G1 X220.310 Y153.024 E3.90673
G1 X215.934 Y148.648 E4.09729
G1 X216.251 Y148.387 E4.10996
G1 X220.310 Y152.445 E4.28670
G1 X220.310 Y151.866 E4.30453
G1 X216.551 Y148.108 E4.46821
G1 X216.832 Y147.809 E4.48082
G1 X220.310 Y151.287 E4.63229
G1 X220.310 Y150.708 E4.65012
G1 X217.076 Y147.475 E4.79095
G1 X217.306 Y147.126 E4.80382
G1 X220.310 Y150.130 E4.93463
G1 X220.310 Y149.551 E4.95246
G1 X217.511 Y146.752 E5.07433
G1 X217.678 Y146.340 E5.08802
G1 X220.310 Y148.972 E5.20263
G1 X220.310 Y148.393 E5.22046
G1 X217.818 Y145.901 E5.32898
G1 X217.925 Y145.429 E5.34388
G1 X220.310 Y147.814 E5.44773
G1 X220.310 Y147.235 E5.46556
G1 X217.990 Y144.915 E5.56658
G1 X217.990 Y144.337 E5.58440
G1 X220.310 Y146.656 E5.68542
G1 X220.310 Y146.077 E5.70325
G1 X217.914 Y143.681 E5.80759
G1 X217.755 Y143.055 E5.82749
G1 X217.683 Y142.872 E5.83357
G1 X220.493 Y145.682 E5.95595
G1 F4320
G1 X218.796 Y143.985 E4.05595
G1 E3.95595 F3600.00000
G92 E0
G1 X215.493 Y153.996 F5400.000
G1 E2.00000 F3600.00000
G1 F1200
G1 X197.685 Y136.188 E2.77555
G1 X197.106 Y136.188 E2.79338
G1 X214.731 Y153.813 E3.56095
G1 X214.152 Y153.813 E3.57878
G1 X199.255 Y138.915 E4.22758
G1 X199.255 Y139.494 E4.24541
G1 X213.573 Y153.813 E4.86901
G1 X212.994 Y153.813 E4.88683
