; generated by Slic3r 1.36.2-prusa3d-win64 on 2018-01-23 at 16:15:23

; 

; external perimeters extrusion width = 0.45mm
; perimeters extrusion width = 0.45mm
; infill extrusion width = 0.45mm
; solid infill extrusion width = 0.45mm
; top infill extrusion width = 0.21mm

M107
M80 ; turn on PSU
M140 S60
M104 S200 ; start E heating
M17; enable motors
G28 X Y ; Z ; Home
M190 S60
M109 S200
G91
G1 E5 F200
G90
; Filament gcode

G21 ; set units to millimeters
G90 ; use absolute coordinates
M82 ; use absolute distances for extrusion
G92 E0
G1 E-2.00000 F3600.00000
G92 E0
G1 Z0.200 F5400.000
G1 X141.643 Y120.657 F5400.000
G1 E2.00000 F3600.00000
G1 F1200
G1 X142.115 Y120.000 E2.02476
G1 X142.651 Y119.423 E2.04888
G1 X143.916 Y118.490 E2.09701
G1 X144.646 Y118.141 E2.12180
G1 X145.395 Y117.893 E2.14594
G1 X146.953 Y117.686 E2.19408
G1 X233.005 Y117.686 E4.82899
G1 X234.281 Y117.819 E4.86825
G1 X235.330 Y118.131 E4.90177
G1 X236.467 Y118.725 E4.94104
G1 X237.331 Y119.405 E4.97470
G1 X238.168 Y120.376 E5.01396
G1 X238.721 Y121.327 E5.04766
G1 X239.141 Y122.538 E5.08690
G1 X239.303 Y123.632 E5.12075
G1 X239.300 Y166.419 E6.43090
G1 X239.003 Y167.957 E6.47884
G1 X238.337 Y169.375 E6.52683
G1 X237.338 Y170.588 E6.57496
G1 X236.084 Y171.510 E6.62259
G1 X235.354 Y171.859 E6.64738
G1 X234.605 Y172.107 E6.67152
G1 X233.042 Y172.314 E6.71982
G1 X146.881 Y172.313 E9.35806
G1 X145.334 Y172.090 E9.40590
G1 X144.590 Y171.836 E9.42999
G1 X143.834 Y171.463 E9.45578
G1 X143.200 Y171.042 E9.47908
G1 X142.568 Y170.497 E9.50464
G1 X142.036 Y169.901 E9.52912
G1 X141.537 Y169.163 E9.55638
G1 X140.943 Y167.780 E9.60249
G1 X140.772 Y167.037 E9.62582
G1 X140.690 Y166.184 E9.65206
G1 X140.694 Y123.678 E10.95358
G1 X140.789 Y122.864 E10.97868
G1 X140.980 Y122.095 E11.00294
G1 X141.618 Y120.712 E11.04959
G1 X141.986 Y120.881 F5400.000
G1 F1200
G1 X142.939 Y119.710 E11.09585
G1 X144.129 Y118.837 E11.14103
G1 X145.504 Y118.285 E11.18641
G1 X146.962 Y118.093 E11.23143
G1 X233.005 Y118.093 E13.86605
G1 X234.204 Y118.219 E13.90297
G1 X235.182 Y118.511 E13.93421
G1 X236.253 Y119.072 E13.97122
G1 X237.057 Y119.706 E14.00260
G1 X237.841 Y120.619 E14.03944
G1 X238.353 Y121.502 E14.07069
G1 X238.747 Y122.644 E14.10768
G1 X238.898 Y123.669 E14.13940
G1 X238.895 Y166.374 E15.44703
G1 X238.619 Y167.823 E15.49219
G1 X237.991 Y169.159 E15.53739
G1 X237.053 Y170.297 E15.58257
G1 X235.871 Y171.163 E15.62742
G1 X234.496 Y171.715 E15.67280
G1 X233.038 Y171.907 E15.71783
G1 X146.896 Y171.906 E18.35547
G1 X145.448 Y171.699 E18.40028
G1 X144.039 Y171.111 E18.44703
G1 X142.854 Y170.207 E18.49265
G1 X142.356 Y169.649 E18.51556
G1 X141.886 Y168.953 E18.54128
G1 X141.333 Y167.664 E18.58421
G1 X141.097 Y166.171 E18.63051
G1 X141.100 Y123.709 E19.93069
G1 X141.369 Y122.217 E19.97711
G1 X141.960 Y120.936 E20.02031
G1 F4320
G1 X142.939 Y119.710 E18.77810
G1 F4320
G1 X143.610 Y119.218 E18.12031
G1 E18.02031 F3600.00000
G92 E0
G1 X230.834 Y162.621 F5400.000
G1 E2.00000 F3600.00000
G1 F1200
G1 X230.894 Y162.472 E2.00493
G1 X231.051 Y162.224 E2.01391
G1 X231.166 Y162.101 E2.01906
G1 X231.409 Y161.925 E2.02825
G1 X231.689 Y161.814 E2.03748
G1 X231.863 Y161.782 E2.04289
G1 X232.154 Y161.783 E2.05180
G1 X232.445 Y161.858 E2.06099
G1 X232.597 Y161.929 E2.06614
G1 X232.834 Y162.101 E2.07511
G1 X232.949 Y162.224 E2.08026
G1 X233.106 Y162.472 E2.08924
G1 X233.168 Y162.628 E2.09439
G1 X233.224 Y162.923 E2.10359
G1 X233.206 Y163.223 E2.11278
G1 X233.166 Y163.379 E2.11771
G1 X233.106 Y163.528 E2.12265
G1 X232.949 Y163.776 E2.13162
G1 X232.834 Y163.899 E2.13677
G1 X232.591 Y164.075 E2.14596
G1 X232.312 Y164.186 E2.15516
G1 X232.154 Y164.216 E2.16009
G1 X231.993 Y164.226 E2.16502
G1 X231.695 Y164.188 E2.17422
G1 X231.415 Y164.077 E2.18345
G1 X231.266 Y163.981 E2.18886
G1 X231.055 Y163.782 E2.19777
G1 X230.894 Y163.528 E2.20695
G1 X230.832 Y163.372 E2.21210
G1 X230.776 Y163.077 E2.22130
G1 X230.794 Y162.777 E2.23050
G1 X230.820 Y162.679 E2.23359
G1 X230.724 Y162.504 F5400.000
G1 F4320
G1 X230.894 Y162.472 E2.05883
G1 F4320
G1 X231.051 Y162.224 E1.82680
G1 F4320
G1 X231.166 Y162.101 E1.69367
G1 F4320
G1 X231.409 Y161.925 E1.45595
G1 F4320
G1 X231.689 Y161.814 E1.21740
G1 F4320
G1 X231.863 Y161.782 E1.07750
G1 F4320
G1 X232.154 Y161.783 E0.84713
G1 F4320
G1 X232.445 Y161.858 E0.60954
G1 F4320
G1 X232.597 Y161.929 E0.47636
G1 F4320
G1 X232.743 Y162.035 E0.33359
G1 E0.23359 F3600.00000
G92 E0
G1 X232.154 Y128.216 F5400.000
G1 E2.00000 F3600.00000
G1 F1200
G1 X231.993 Y128.226 E2.00493
G1 X231.695 Y128.188 E2.01413
G1 X231.415 Y128.077 E2.02335
G1 X231.266 Y127.981 E2.02876
G1 X231.055 Y127.782 E2.03767
G1 X230.894 Y127.528 E2.04686
G1 X230.832 Y127.372 E2.05201
G1 X230.776 Y127.077 E2.06121
G1 X230.794 Y126.777 E2.07040
G1 X230.834 Y126.621 E2.07533
G1 X230.894 Y126.472 E2.08027
G1 X231.051 Y126.224 E2.08924
G1 X231.166 Y126.101 E2.09439
G1 X231.409 Y125.925 E2.10358
G1 X231.689 Y125.814 E2.11281
G1 X231.863 Y125.782 E2.11822
G1 X232.154 Y125.783 E2.12713
G1 X232.445 Y125.858 E2.13632
G1 X232.597 Y125.929 E2.14147
G1 X232.834 Y126.101 E2.15045
G1 X232.949 Y126.224 E2.15560
G1 X233.106 Y126.472 E2.16457
G1 X233.168 Y126.628 E2.16972
G1 X233.224 Y126.923 E2.17892
G1 X233.206 Y127.223 E2.18812
G1 X233.166 Y127.379 E2.19305
G1 X233.106 Y127.528 E2.19798
G1 X232.949 Y127.776 E2.20695
G1 X232.834 Y127.899 E2.21210
G1 X232.591 Y128.075 E2.22130
G1 X232.312 Y128.186 E2.23050
G1 X232.212 Y128.205 E2.23359
G1 X232.094 Y128.365 F5400.000
G1 F4320
G1 X231.993 Y128.226 E2.05896
G1 F4320
G1 X231.695 Y128.188 E1.82116
G1 F4320
G1 X231.415 Y128.077 E1.58261
G1 F4320
G1 X231.266 Y127.981 E1.44275
G1 F4320
G1 X231.055 Y127.782 E1.21232
G1 F4320
G1 X230.894 Y127.528 E0.97482
G1 F4320
G1 X230.832 Y127.372 E0.84165
G1 F4320
G1 X230.776 Y127.077 E0.60387
G1 F4320
G1 X230.794 Y126.777 E0.36611
G1 F4320
G1 X230.805 Y126.738 E0.33359
G1 E0.23359 F3600.00000
G92 E0
G1 X183.111 Y124.581 F5400.000
G1 E2.00000 F3600.00000
G1 F1200
G1 X230.071 Y124.581 E3.43790
G1 X230.071 Y165.419 E4.68836
G1 X183.111 Y165.419 E6.12626
G1 X183.111 Y124.641 E7.37488
G1 X183.518 Y124.988 F5400.000
G1 F1200
G1 X229.664 Y124.988 E8.78786
G1 X229.664 Y165.012 E10.01338
G1 X183.518 Y165.012 E11.42636
G1 X183.518 Y125.048 E12.65005
G1 X183.406 Y124.604 F5400.000
G1 F4320
G1 X185.918 Y125.045 E10.75005
G1 E10.65005 F3600.00000
G92 E0
G1 X230.478 Y128.357 F5400.000
G1 E2.00000 F3600.00000
G1 F1200
G1 X230.762 Y128.625 E2.01194
G1 X231.040 Y128.805 E2.02209
G1 X231.491 Y128.983 E2.03693
G1 X231.967 Y129.043 E2.05163
G1 X232.256 Y129.025 E2.06048
G1 X232.540 Y128.971 E2.06933
G1 X232.986 Y128.794 E2.08404
G1 X233.458 Y128.452 E2.10189
G1 X233.458 Y161.548 E3.11531
G1 X233.013 Y161.225 E3.13214
G1 X232.722 Y161.088 E3.14201
G1 X232.258 Y160.969 E3.15667
G1 X231.790 Y160.968 E3.17099
G1 X231.464 Y161.027 E3.18114
G1 X231.014 Y161.206 E3.19597
G1 X230.478 Y161.595 E3.21623
G1 X230.478 Y128.417 E4.23213
G1 F4320
G1 X230.762 Y128.625 E3.95385
G1 F4320
G1 X231.040 Y128.805 E3.69140
G1 F4320
G1 X231.491 Y128.983 E3.30786
G1 F4320
G1 X231.967 Y129.043 E2.92766
G1 F4320
G1 X232.256 Y129.025 E2.69890
G1 F4320
G1 X232.540 Y128.971 E2.46998
G1 F4320
G1 X232.702 Y128.907 E2.33213
G1 E2.23213 F3600.00000
G92 E0
G1 X152.841 Y152.670 F5400.000
G1 E2.00000 F3600.00000
G1 F1200
G1 X152.913 Y153.129 E2.01425
G1 X152.899 Y153.594 E2.02849
G1 X152.793 Y154.115 E2.04476
G1 X152.658 Y154.456 E2.05601
G1 X152.493 Y154.755 E2.06645
G1 X152.293 Y155.031 E2.07690
G1 X152.059 Y155.280 E2.08734
G1 X151.797 Y155.497 E2.09779
G1 X151.509 Y155.680 E2.10823
G1 X151.200 Y155.825 E2.11868
G1 X150.875 Y155.931 E2.12912
G1 X150.540 Y155.995 E2.13957
G1 X150.200 Y156.016 E2.15001
G1 X149.833 Y155.993 E2.16126
G1 X149.317 Y155.867 E2.17753
G1 X148.905 Y155.689 E2.19128
G1 X148.603 Y155.497 E2.20222
G1 X148.341 Y155.280 E2.21266
G1 X148.107 Y155.031 E2.22311
G1 X147.907 Y154.755 E2.23355
G1 X147.730 Y154.433 E2.24480
G1 X147.559 Y153.930 E2.26107
G1 X147.487 Y153.471 E2.27531
G1 X147.501 Y153.006 E2.28956
G1 X147.607 Y152.485 E2.30583
G1 X147.742 Y152.144 E2.31707
G1 X147.907 Y151.845 E2.32752
G1 X148.107 Y151.569 E2.33797
G1 X148.341 Y151.320 E2.34841
G1 X148.603 Y151.103 E2.35886
G1 X148.891 Y150.920 E2.36930
G1 X149.200 Y150.775 E2.37975
G1 X149.540 Y150.664 E2.39069
G1 X149.983 Y150.594 E2.40443
G1 X150.514 Y150.600 E2.42070
G1 X150.875 Y150.669 E2.43195
G1 X151.200 Y150.775 E2.44239
G1 X151.509 Y150.920 E2.45284
G1 X151.797 Y151.103 E2.46328
G1 X152.059 Y151.320 E2.47373
G1 X152.293 Y151.569 E2.48417
G1 X152.493 Y151.845 E2.49462
G1 X152.670 Y152.167 E2.50587
G1 X152.822 Y152.613 E2.52030
G1 X152.436 Y152.744 F5400.000
G1 F1200
G1 X152.505 Y153.155 E2.53307
G1 X152.493 Y153.547 E2.54509
G1 X152.401 Y153.998 E2.55919
G1 X152.289 Y154.283 E2.56855
G1 X152.149 Y154.537 E2.57743
G1 X151.979 Y154.771 E2.58631
G1 X151.780 Y154.983 E2.59518
G1 X151.557 Y155.167 E2.60406
G1 X151.312 Y155.323 E2.61294
G1 X151.050 Y155.446 E2.62182
G1 X150.774 Y155.536 E2.63069
G1 X150.489 Y155.590 E2.63957
G1 X150.200 Y155.608 E2.64844
G1 X149.895 Y155.589 E2.65781
G1 X149.447 Y155.480 E2.67191
G1 X149.096 Y155.328 E2.68362
G1 X148.843 Y155.167 E2.69280
G1 X148.620 Y154.983 E2.70168
G1 X148.421 Y154.771 E2.71055
G1 X148.251 Y154.537 E2.71943
G1 X148.104 Y154.269 E2.72880
G1 X147.956 Y153.833 E2.74290
G1 X147.895 Y153.445 E2.75491
G1 X147.907 Y153.053 E2.76692
G1 X147.999 Y152.602 E2.78103
G1 X148.111 Y152.317 E2.79039
G1 X148.251 Y152.063 E2.79927
G1 X148.421 Y151.829 E2.80815
G1 X148.620 Y151.617 E2.81702
G1 X148.843 Y151.433 E2.82590
G1 X149.088 Y151.277 E2.83477
G1 X149.350 Y151.154 E2.84365
G1 X149.635 Y151.061 E2.85283
G1 X150.013 Y151.001 E2.86454
G1 X150.474 Y151.007 E2.87864
G1 X150.774 Y151.064 E2.88801
G1 X151.050 Y151.154 E2.89688
G1 X151.312 Y151.277 E2.90576
G1 X151.557 Y151.433 E2.91464
G1 X151.780 Y151.617 E2.92351
G1 X151.979 Y151.829 E2.93239
G1 X152.149 Y152.063 E2.94127
G1 X152.296 Y152.331 E2.95063
G1 X152.417 Y152.687 E2.96212
G1 X152.097 Y153.181 F5400.000
G1 F1200
G1 X152.087 Y153.500 E2.97190
G1 X152.009 Y153.882 E2.98384
G1 X151.920 Y154.109 E2.99133
G1 X151.805 Y154.318 E2.99863
G1 X151.664 Y154.511 E3.00594
G1 X151.501 Y154.685 E3.01325
G1 X151.317 Y154.837 E3.02056
G1 X151.116 Y154.965 E3.02786
G1 X150.900 Y155.067 E3.03517
G1 X150.673 Y155.141 E3.04248
G1 X150.438 Y155.185 E3.04979
G1 X150.200 Y155.200 E3.05710
G1 X149.956 Y155.185 E3.06458
G1 X149.577 Y155.093 E3.07652
G1 X149.287 Y154.967 E3.08619
G1 X149.083 Y154.837 E3.09360
G1 X148.899 Y154.685 E3.10091
G1 X148.736 Y154.511 E3.10822
G1 X148.595 Y154.318 E3.11553
G1 X148.478 Y154.104 E3.12301
G1 X148.353 Y153.735 E3.13495
G1 X148.303 Y153.419 E3.14473
G1 X148.313 Y153.100 E3.15451
G1 X148.391 Y152.718 E3.16645
G1 X148.480 Y152.491 E3.17393
G1 X148.595 Y152.282 E3.18124
G1 X148.736 Y152.089 E3.18855
G1 X148.899 Y151.915 E3.19585
G1 X149.083 Y151.763 E3.20316
G1 X149.284 Y151.635 E3.21047
G1 X149.500 Y151.533 E3.21778
G1 X149.731 Y151.458 E3.22519
G1 X150.043 Y151.409 E3.23486
G1 X150.433 Y151.413 E3.24680
G1 X150.673 Y151.459 E3.25429
G1 X150.900 Y151.533 E3.26159
G1 X151.116 Y151.635 E3.26890
G1 X151.317 Y151.763 E3.27621
G1 X151.501 Y151.915 E3.28352
G1 X151.664 Y152.089 E3.29083
G1 X151.805 Y152.282 E3.29814
G1 X151.922 Y152.496 E3.30562
G1 X152.047 Y152.865 E3.31756
G1 X152.088 Y153.121 E3.32550
G1 X152.383 Y153.323 F5400.000
G1 F4320
G1 X152.087 Y153.500 E3.02589
G1 F4320
G1 X152.009 Y153.882 E2.71713
G1 F4320
G1 X151.920 Y154.109 E2.52371
G1 F4320
G1 X151.805 Y154.318 E2.33479
G1 F4320
G1 X151.664 Y154.511 E2.14583
G1 F4320
G1 X151.501 Y154.685 E1.95690
G1 F4320
G1 X151.317 Y154.837 E1.76793
G1 F4320
G1 X151.116 Y154.965 E1.57903
G1 F4320
G1 X150.940 Y155.048 E1.42550
G1 E1.32550 F3600.00000
G92 E0
G1 X150.540 Y139.395 F5400.000
G1 E2.00000 F3600.00000
G1 F1200
G1 X150.200 Y139.416 E2.01044
G1 X149.833 Y139.393 E2.02169
G1 X149.317 Y139.267 E2.03796
G1 X148.905 Y139.089 E2.05171
G1 X148.603 Y138.897 E2.06265
G1 X148.341 Y138.680 E2.07309
G1 X148.107 Y138.431 E2.08354
G1 X147.907 Y138.155 E2.09399
G1 X147.730 Y137.833 E2.10524
G1 X147.559 Y137.330 E2.12150
G1 X147.487 Y136.871 E2.13575
G1 X147.501 Y136.406 E2.14999
G1 X147.607 Y135.885 E2.16626
G1 X147.742 Y135.544 E2.17751
G1 X147.907 Y135.245 E2.18795
G1 X148.107 Y134.969 E2.19840
G1 X148.341 Y134.720 E2.20884
G1 X148.603 Y134.503 E2.21929
G1 X148.891 Y134.320 E2.22973
G1 X149.200 Y134.175 E2.24018
G1 X149.540 Y134.064 E2.25112
G1 X149.983 Y133.994 E2.26487
G1 X150.514 Y134.000 E2.28113
G1 X150.875 Y134.069 E2.29238
G1 X151.200 Y134.175 E2.30283
G1 X151.509 Y134.320 E2.31327
G1 X151.797 Y134.503 E2.32372
G1 X152.059 Y134.720 E2.33416
G1 X152.293 Y134.969 E2.34461
G1 X152.493 Y135.245 E2.35506
G1 X152.670 Y135.567 E2.36631
G1 X152.841 Y136.070 E2.38257
G1 X152.913 Y136.529 E2.39681
G1 X152.899 Y136.994 E2.41106
G1 X152.793 Y137.515 E2.42733
G1 X152.658 Y137.856 E2.43857
G1 X152.493 Y138.155 E2.44902
G1 X152.293 Y138.431 E2.45947
G1 X152.059 Y138.680 E2.46991
G1 X151.797 Y138.897 E2.48036
G1 X151.509 Y139.080 E2.49080
G1 X151.200 Y139.225 E2.50125
G1 X150.875 Y139.331 E2.51169
G1 X150.599 Y139.384 E2.52030
G1 X149.895 Y138.989 F5400.000
G1 F1200
G1 X149.447 Y138.880 E2.53440
G1 X149.096 Y138.728 E2.54611
G1 X148.843 Y138.567 E2.55529
G1 X148.620 Y138.383 E2.56417
G1 X148.421 Y138.171 E2.57304
G1 X148.251 Y137.937 E2.58192
G1 X148.104 Y137.669 E2.59129
G1 X147.956 Y137.233 E2.60539
G1 X147.895 Y136.845 E2.61740
G1 X147.907 Y136.453 E2.62941
G1 X147.999 Y136.002 E2.64352
G1 X148.111 Y135.717 E2.65288
G1 X148.251 Y135.463 E2.66176
G1 X148.421 Y135.229 E2.67064
G1 X148.620 Y135.017 E2.67951
G1 X148.843 Y134.833 E2.68839
G1 X149.088 Y134.677 E2.69726
G1 X149.350 Y134.554 E2.70614
G1 X149.635 Y134.461 E2.71532
G1 X150.013 Y134.401 E2.72703
G1 X150.473 Y134.407 E2.74113
G1 X150.774 Y134.464 E2.75050
G1 X151.050 Y134.554 E2.75937
G1 X151.312 Y134.677 E2.76825
G1 X151.557 Y134.833 E2.77713
G1 X151.780 Y135.017 E2.78600
G1 X151.979 Y135.229 E2.79488
G1 X152.149 Y135.463 E2.80376
G1 X152.296 Y135.731 E2.81312
G1 X152.444 Y136.167 E2.82723
G1 X152.505 Y136.555 E2.83924
G1 X152.493 Y136.947 E2.85125
G1 X152.401 Y137.398 E2.86536
G1 X152.289 Y137.683 E2.87472
G1 X152.149 Y137.937 E2.88359
G1 X151.979 Y138.171 E2.89247
G1 X151.780 Y138.383 E2.90135
G1 X151.557 Y138.567 E2.91023
G1 X151.312 Y138.723 E2.91910
G1 X151.050 Y138.846 E2.92798
G1 X150.774 Y138.936 E2.93685
G1 X150.489 Y138.990 E2.94573
G1 X150.200 Y139.008 E2.95461
G1 X149.955 Y138.993 E2.96213
G1 X149.980 Y138.587 F5400.000
G1 F1200
G1 X149.577 Y138.493 E2.97480
G1 X149.287 Y138.367 E2.98447
G1 X149.083 Y138.237 E2.99189
G1 X148.899 Y138.085 E2.99920
G1 X148.736 Y137.911 E3.00650
G1 X148.595 Y137.718 E3.01381
G1 X148.478 Y137.504 E3.02129
G1 X148.353 Y137.135 E3.03324
G1 X148.303 Y136.819 E3.04301
G1 X148.313 Y136.500 E3.05279
G1 X148.391 Y136.118 E3.06473
G1 X148.480 Y135.891 E3.07221
G1 X148.595 Y135.682 E3.07952
G1 X148.736 Y135.489 E3.08683
G1 X148.899 Y135.315 E3.09414
G1 X149.083 Y135.163 E3.10145
G1 X149.284 Y135.035 E3.10875
G1 X149.500 Y134.933 E3.11606
G1 X149.731 Y134.858 E3.12348
G1 X150.043 Y134.809 E3.13315
G1 X150.433 Y134.813 E3.14509
G1 X150.673 Y134.859 E3.15257
G1 X150.900 Y134.933 E3.15988
G1 X151.116 Y135.035 E3.16719
G1 X151.317 Y135.163 E3.17449
G1 X151.501 Y135.315 E3.18180
G1 X151.664 Y135.489 E3.18911
G1 X151.805 Y135.682 E3.19642
G1 X151.922 Y135.896 E3.20390
G1 X152.047 Y136.265 E3.21584
G1 X152.097 Y136.581 E3.22562
G1 X152.087 Y136.900 E3.23540
G1 X152.009 Y137.282 E3.24734
G1 X151.920 Y137.509 E3.25482
G1 X151.805 Y137.718 E3.26213
G1 X151.664 Y137.911 E3.26944
G1 X151.501 Y138.085 E3.27674
G1 X151.317 Y138.237 E3.28405
G1 X151.116 Y138.365 E3.29136
G1 X150.900 Y138.467 E3.29867
G1 X150.673 Y138.541 E3.30598
G1 X150.438 Y138.585 E3.31328
G1 X150.040 Y138.590 E3.32547
G1 X149.737 Y138.904 F5400.000
G1 F4320
G1 X149.577 Y138.493 E2.95102
G1 F4320
G1 X149.287 Y138.367 E2.70096
G1 F4320
G1 X149.083 Y138.237 E2.50929
G1 F4320
G1 X148.899 Y138.085 E2.32031
G1 F4320
