;Project temp-F.Cu
;Created by Estlcam version 10 build 11.008
;Machining time about 00:09:23 hours

G90
M03 S24000
G00 Z5.0000


;No. 1: Hole 1
G00 X0.3400 Y0.5300
G00 Z0.5000
G01 Z-0.1500 F2.000 S24000
G01 X24.7600 F4.000
G01 Y0.8900
G01 X0.3400
G01 Y1.2500
G01 X11.7100
G01 X9.2366
G01 Y1.6100
G01 X0.3400
G01 Y1.9700
G01 X8.8766
G01 X8.5166 Y2.3300
G01 X0.3400
G01 Y2.6900
G01 X8.1566
G01 X7.7966 Y3.0500
G01 X0.3400
G01 Y3.4100
G01 X7.4366
G01 X7.1346 Y3.7700
G01 X0.3400
G01 Y4.1300
G01 X7.1000
G01 X2.0442
G01 Y4.4900
G01 X0.3400
G01 Y4.8500
G01 X1.5979
G01 X1.4229 Y5.2100
G01 X0.3400
G01 Y5.5700
G01 X1.3900
G01 X1.4812 Y5.9300
G01 X0.3400
G01 Y6.2900
G01 X1.7321
G01 Y6.6500
G01 X0.3400
G01 X9.3300
G01 Y6.2900
G01 X8.6050
G01 Y5.9300
G01 X9.3300
G01 X9.0463 Y5.5700
G01 X8.5696
G00 Z5.0000
G00 X12.6866 Y0.8900
G00 Z0.5000
G01 Z-0.1500 F2.000
G01 Y1.2500 F4.000
G01 X13.2136
G01 X13.2102 Y1.6100
G01 X12.6900
G01 Y1.9700
G01 X13.2104
G01 X13.2554 Y2.3300
G01 X12.6447
G01 Y2.6900
G01 X14.9340
G01 X9.5439
G01 X9.9040 Y2.3300
G01 X11.7554
G00 Z5.0000
G00 X15.2700 Y0.8900
G00 Z0.5000
G01 Z-0.1500 F2.000
G01 Y1.2500 F4.000
G01 X21.7017
G01 X21.6200 Y1.6100
G01 X15.8334
G01 X16.1229 Y1.9700
G01 X20.5366
G01 X20.1763 Y2.3300
G01 X16.1500
G01 X16.3860 Y2.6900
G01 X17.4340
G01 X17.4202 Y3.0500
G01 X16.4000
G01 Y3.4100
G01 X17.4204
G01 X17.4206 Y3.7700
G01 X16.4000
G01 Y4.1300
G01 X13.7135
G01 X21.8799
G01 Y3.7700
G01 X22.4596
G01 X18.8996
G01 X20.4836
G01 Y3.4100
G01 X24.7600
G01 Y3.0500
G01 X23.8000
G01 X23.7998 Y2.6900
G01 X24.7600
G01 Y2.3300
G01 X23.7997
G01 X23.7996 Y1.9700
G01 X24.7600
G01 Y1.6100
G01 X23.7995
G01 X23.7184 Y1.2500
G01 X24.7600
G00 Z5.0000
G00 X14.1447 Y2.6900
G00 Z0.5000
G01 Z-0.1500 F2.000
G01 Y2.3300 F4.000
G01 X15.1660
G00 Z5.0000
G00 X18.8860
G00 Z0.5000
G01 Z-0.1500 F2.000
G01 Y2.6900 F4.000
G01 X19.8161
G00 Z5.0000
G00 X13.4066
G00 Z0.5000
G01 Z-0.1500 F2.000
G01 Y3.0500 F4.000
G01 X9.1837
G01 X8.8236 Y3.4100
G01 X13.0466
G01 X12.6866 Y3.7700
G01 X8.4635
G01 X8.1034 Y4.1300
G01 X12.5018
G01 X11.9751
G01 Y4.4900
G01 X9.3534
G01 X9.7134 Y4.8500
G01 X11.9754
G01 X12.0623 Y5.2100
G01 X10.0734
G01 X10.3015 Y5.5700
G01 X11.3744
G01 X10.9866 Y5.9300
G01 X10.3100
G01 Y6.2900
G01 X10.8300
G01 Y6.6500
G01 X10.3100
G01 Y7.0100
G01 X10.8301
G01 Y7.3700
G01 X10.3100
G01 Y7.7300
G01 X10.8302
G01 Y8.0900
G01 X10.3100
G01 Y8.4500
G01 X10.8303
G01 Y8.8100
G01 X10.3100
G01 Y9.1700
G01 X10.8304
G01 Y9.5300
G01 X10.3100
G01 Y9.8900
G01 X10.8304
G01 X10.8305 Y10.2500
G01 X10.3100
G01 Y10.6100
G01 X10.8305
G01 X10.8306 Y10.9700
G01 X10.3100
G01 X10.1380 Y11.3300
G01 X11.0019
G01 Y11.6900
G01 X8.5800
G01 X18.0640
G01 X18.4242 Y11.3300
G01 X11.6380
G01 X11.8100 Y10.9700
G01 X18.7843
G01 X19.1444 Y10.6100
G01 X11.8100
G01 X11.8101 Y10.2500
G01 X19.5045
G01 X19.8646 Y9.8900
G01 X11.8101
G01 Y9.5300
G01 X20.2248
G01 Y9.1700
G01 X21.9131
G01 X11.8102
G01 X14.0050
G01 Y8.8100
G01 X24.7600
G01 Y8.4500
G01 X14.0050
G01 X13.9560 Y8.0900
G01 X21.9135
G00 Z5.0000
G00 X21.6204 Y3.4100
G00 Z0.5000
G01 Z-0.1500 F2.000
G01 Y3.0500 F4.000
G01 X20.8438
G00 Z5.0000
G00 X14.9202 Y4.1300
G00 Z0.5000
G01 Z-0.1500 F2.000
G01 Y3.7700 F4.000
G01 X14.0740
G00 Z5.0000
G00 X22.9617 Y3.4100
G00 Z0.5000
G01 Z-0.1500 F2.000
G01 Y3.7700 F4.000
G01 X24.7600
G01 Y4.1300
G01 X23.5401
G01 X23.7391 Y4.4900
G01 X24.7600
G01 Y4.8500
G01 X23.7900
G01 X23.7171 Y5.2100
G01 X24.7600
G01 Y5.5700
G01 X23.4901
G01 X24.7600
G01 Y5.9300
G01 X18.8864
G01 X20.7936
G01 Y5.5700
G01 X21.9299
G00 Z5.0000
G00 X6.5751 Y4.1300
G00 Z0.5000
G01 Z-0.1500 F2.000
G01 Y4.4900 F4.000
G01 X2.8953
G01 X3.3420
G01 Y4.8500
G01 X6.5754
G01 X6.6623 Y5.2100
G01 X3.9334
G00 Z5.0000
G00 X14.0045 Y4.1300
G00 Z0.5000
G01 Z-0.1500 F2.000
G01 Y4.4900 F4.000
G01 X20.4866
G01 X14.9136
G01 Y4.8500
G01 X14.0048
G01 X13.9176 Y5.2100
G01 X14.9098
G00 Z5.0000
G00 X16.3866 Y4.4900
G00 Z0.5000
G01 Z-0.1500 F2.000
G01 Y4.8500 F4.000
G01 X17.4136
G01 X17.4102 Y5.2100
G01 X16.3896
G01 X16.3898 Y5.5700
G01 X17.4104
G01 X17.4134 Y5.9300
G01 X16.3864
G01 Y6.2900
G01 X15.4436
G01 X22.5761
G01 X21.8965
G01 Y6.6500
G01 X11.8104
G00 Z5.0000
G00 X18.8866 Y4.4900
G00 Z0.5000
G01 Z-0.1500 F2.000
G01 Y4.8500 F4.000
G01 X20.1261
G00 Z5.0000
G00 X3.6275 Y6.6500
G00 Z0.5000
G01 Z-0.1500 F2.000
G01 Y6.2900 F4.000
G01 X3.2083
G00 Z5.0000
G00 X22.8471 Y5.9300
G00 Z0.5000
G01 Z-0.1500 F2.000
G01 Y6.2900 F4.000
G01 X24.7600
G01 Y6.6500
G01 X23.5235
G01 X23.7318 Y7.0100
G01 X24.7600
G01 Y7.3700
G01 X23.7900
G01 X23.7245 Y7.7300
G01 X24.7600
G01 Y8.0900
G01 X23.5068
G00 Z5.0000
G00 X1.4508 Y6.6500
G00 Z0.5000
G01 Z-0.1500 F2.000
G01 Y7.0100 F4.000
G01 X0.3400
G01 Y7.3700
G01 X1.3801
G01 X1.3802 Y7.7300
G01 X0.3400
G01 Y8.0900
G01 X1.3803
G01 X1.3804 Y8.4500
G01 X0.3400
G01 Y8.8100
G01 X1.3806
G01 Y9.1700
G01 X0.3400
G01 X5.1268
G01 X5.4868 Y8.8100
G01 X3.5608
G01 X3.7973 Y8.4500
G01 X5.8468
G01 Y8.0900
G01 X6.2495
G01 X4.1837
G00 Z5.0000
G00 X3.9067 Y6.6500
G00 Z0.5000
G01 Z-0.1500 F2.000
G01 Y7.0100 F4.000
G01 X3.4892
G00 Z5.0000
G00 X8.6050 Y6.6500
G00 Z0.5000
G01 Z-0.1500 F2.000
G01 Y7.0100 F4.000
G01 X9.3300
G01 Y7.3700
G01 X8.6050
G01 X8.5389 Y7.7300
G01 X9.3300
G01 Y8.0900
G01 X8.5560
G01 X8.6046 Y8.4500
G01 X9.3300
G01 Y8.8100
G01 X8.6050
G01 X9.3300
G01 Y9.1700
G01 X6.5138
G01 X6.1534 Y9.5300
G01 X9.3300
G01 Y9.8900
G01 X5.8531
G01 X7.2194
G01 Y10.2500
G01 X7.4400
G01 X7.4403 Y10.6100
G01 X7.2197
G01 X7.2200 Y10.9700
G01 X7.4406
G01 X7.6000 Y11.3300
G01 X5.8202
G01 X5.8635 Y11.6900
G01 X7.6000
G01 X7.4508 Y12.0500
G01 X7.2294
G01 X7.2297 Y12.4100
G01 X7.4503
G01 X7.4506 Y12.7700
G01 X7.2300
G00 Z5.0000
G00 X23.5069 Y8.8100
G00 Z0.5000
G01 Z-0.1500 F2.000
G01 Y9.1700 F4.000
G01 X24.7600
G01 Y9.5300
G01 X23.7243
G01 X23.7900 Y9.8900
G01 X24.7600
G01 Y10.2500
G01 X23.7316
G01 X23.5236 Y10.6100
G01 X24.7600
G01 Y10.9700
G01 X22.8434
G01 X24.7600
G01 Y11.3300
G01 X20.2357
G01 X20.5959 Y10.9700
G01 X22.5735
G01 X21.8966
G01 Y10.6100
G01 X20.9560
G00 Z5.0000
G00 X4.8595 Y9.1700
G00 Z0.5000
G01 Z-0.1500 F2.000
G01 Y9.5300 F4.000
G01 X0.3400
G01 Y9.8900
G01 X4.8400
G01 Y10.2500
G01 X0.3400
G01 Y10.6100
G01 X4.8400
G01 Y10.9700
G01 X0.3400
G01 Y11.3300
G01 X4.8400
G01 Y11.6900
G01 X0.3400
G01 Y12.0500
G01 X4.8825
G01 X5.1971 Y12.4100
G01 X0.3400
G01 Y12.7700
G01 X5.5577
G01 X5.9521 Y13.1300
G01 X0.3400
G01 Y13.4900
G01 X6.1054
G01 X6.4593 Y13.8500
G01 X0.3400
G01 Y14.2100
G01 X6.8132
G01 X7.1672 Y14.5700
G01 X0.3400
G00 Z5.0000
G00 X8.5800 Y11.6900
G00 Z0.5000
G01 Z-0.1500 F2.000
G01 Y11.3300 F4.000
G01 X9.5019
G00 Z5.0000
G00 X21.9299
G00 Z0.5000
G01 Z-0.1500 F2.000
G01 Y11.6900 F4.000
G01 X19.8756
G01 X19.5155 Y12.0500
G01 X21.0648
G01 X20.7046 Y12.4100
G01 X19.1554
G01 X18.7953 Y12.7700
G01 X20.3444
G01 X19.9842 Y13.1300
G01 X7.5356
G01 X7.8954 Y13.4900
G01 X19.6241
G00 Z5.0000
G00 X23.4901 Y11.3300
G00 Z0.5000
G01 Z-0.1500 F2.000
G01 Y11.6900 F4.000
G01 X24.7600
G01 Y12.0500
G01 X23.7170
G01 X23.7900 Y12.4100
G01 X24.7600
G01 Y12.7700
G01 X23.7390
G01 X23.5403 Y13.1300
G01 X24.7600
G01 Y13.4900
G01 X22.9592
G01 X24.7600
G01 Y13.8500
G01 X21.0753
G01 X21.4354 Y13.4900
G01 X22.4595
G00 Z5.0000
G00 X24.7600 Y13.8500
G00 Z0.5000
G01 Z-0.1500 F2.000
G01 Y14.2100 F4.000
G01 X20.7153
G01 X20.3552 Y14.5700
G01 X24.7600
G00 Z5.0000
G00 X12.0409 Y7.7300
G00 Z0.5000
G01 Z-0.1500 F2.000
G01 X11.8103 F4.000
G01 Y8.0900
G01 X12.0241
G00 Z5.0000
G00 Z0.5000
G01 Z-0.1500 F2.000
G01 X12.0575 Y8.1128 F4.000
G03 X12.2009 Y8.0355 I0.1566 J0.1188
G01 X13.7650 Y8.0350
G03 X13.9650 Y8.2550 I-0.0008 J0.2016
G01 Y8.8350
G03 X13.7450 Y9.0350 I-0.2018 J-0.0010
G01 X12.2150
G03 X12.0155 Y8.8491 I0.0000 J-0.2000
G01 X12.0150 Y8.8150
G01 Y8.2350
G01 X12.0160 Y8.2150
G03 X12.0575 Y8.1128 I0.1860 J0.0159
G01 X12.0241 Y8.0900
G00 Z5.0000
G00 X12.0409 Y7.7300
G00 Z0.5000
G01 Z-0.1500 F2.000
G01 X12.1559 Y7.7561 F4.000
G03 X12.0155 Y7.5791 I0.0591 J-0.1911
G01 X12.0160 Y6.9450
G03 X12.2009 Y6.7655 I0.1990 J0.0200
G01 X13.7650 Y6.7650
G02 X13.9650 Y6.8150 I0.2932 J-0.7480
G01 X13.9050
G01 X21.8020
G03 X23.1039 Y8.3319 I0.9027 J0.5424
G03 X21.7326 Y7.7159 I-0.3932 J-0.9590
G01 X13.7662 Y7.7650
G01 X12.2150
G01 X12.1753 Y7.7610
G01 X12.1559 Y7.7561
G01 X12.0409 Y7.7300
G00 Z5.0000
G00 X12.0623 Y5.2100
G00 Z0.5000
G01 Z-0.1500 F2.000
G01 X12.1950 Y5.2240 F4.000
G03 X12.0155 Y5.0391 I0.0200 J-0.1990
G01 X12.0150 Y4.4250
G01 X12.0190 Y4.3853
G03 X12.2009 Y4.2255 I0.1960 J0.0397
G01 X12.5400 Y4.2250
G01 Y4.1600
G01 X12.5422 Y4.1162
G03 X12.6857 Y3.8274 I0.4624 J0.0498
G01 X13.5616 Y2.9516
G03 X13.9000 Y2.8200 I0.3179 J0.3166
G01 X14.9600
G01 X14.9610 Y2.7500
G03 X15.2100 Y2.5700 I0.2080 J0.0255
G01 Y2.3168
G01 X15.0832 Y2.1900
G01 X14.1500
G03 X13.9641 Y2.3895 I-0.2000 J0.0000
G01 X13.4300 Y2.3890
G03 X13.2505 Y2.2041 I0.0200 J-0.1990
G01 X13.2510 Y1.2700
G03 X13.4700 Y1.0900 I0.2007 J0.0209
G01 X13.9500
G03 X14.1500 Y1.2900 I0.0000 J0.2000
G01 X15.2700
G03 X15.4502 Y1.3273 I-0.0036 J0.4718
G03 X16.0687 Y1.9404 I-0.8596 J1.4857
G03 X16.1100 Y2.5700 I-1.2288 J0.3967
G03 X16.3600 Y2.7900 I0.0426 J0.2036
G01 Y3.7700
G03 X16.1741 Y3.9695 I-0.2000 J0.0000
G01 X15.1600 Y3.9700
G03 X14.9605 Y3.7841 I0.0000 J-0.2000
G01 X14.9600 Y3.7200
G01 X14.0668
G01 X13.5653 Y4.2216
G01 X13.5800 Y4.2250
G01 X13.7850 Y4.2260
G03 X13.9650 Y4.4450 I-0.0211 J0.2008
G01 Y5.0250
G03 X13.7791 Y5.2245 I-0.2000 J0.0000
G01 X12.2150 Y5.2250
G01 X12.1950 Y5.2240
G01 X12.0623 Y5.2100
G00 Z5.0000
G00 Z0.5000
G01 Z-0.1500 F2.000
G01 X12.1615 Y5.5023 F4.000
G03 X12.2350 Y5.4950 I0.0599 J0.2298
G01 X13.7650
G02 X13.9650 Y5.5450 I2.6887 J-10.3299
G01 X13.9050
G01 X14.8582
G01 X14.9500 Y5.4532
G01 Y4.8900
G03 X15.1700 Y4.6900 I0.2016 J0.0008
G01 X16.1700 Y4.6910
G03 X16.3495 Y4.8759 I-0.0200 J0.1990
G01 X16.3490 Y5.9100
G03 X16.1641 Y6.0895 I-0.1990 J-0.0200
G01 X15.5868 Y6.0900
G01 X15.3634 Y6.3134
G03 X15.0250 Y6.4450 I-0.3195 J-0.3207
G01 X13.9050
G01 X13.9650
G02 X13.7791 Y6.4945 I1.2897 J5.2159
G01 X13.7450 Y6.4950
G01 X12.2150
G02 X12.0150 Y6.4450 I-2.6887 J10.3299
G01 X12.0750
G01 X11.8018
G01 X11.7700 Y6.4768
G01 Y11.1000
G03 X11.5500 Y11.3000 I-0.2018 J-0.0010
G01 X11.0700
G03 X10.8705 Y11.1141 I0.0000 J-0.2000
G01 X10.8700 Y6.2900
G03 X10.8928 Y6.1488 I0.5263 J0.0124
G03 X11.4722 Y5.5682 I1.1942 J0.6125
G03 X12.0750 Y5.5450 I0.3606 J1.5229
G01 X12.0150
G02 X12.1615 Y5.5023 I-0.1070 J-0.6398
G01 X12.0623 Y5.2100
G00 Z5.0000
G00 X10.3015 Y5.5700
G00 Z0.5000
G01 Z-0.1500 F2.000
G01 X10.2660 Y5.5947 F4.000
G03 X10.2700 Y5.6700 I-0.4043 J0.0590
G01 Y11.1000
G03 X10.0500 Y11.3000 I-0.2018 J-0.0010
G01 X9.5700
G03 X9.3729 Y11.1340 I0.0000 J-0.2000
G01 X9.3700 Y11.1000
G01 X8.6600
G01 X8.6800
G02 X8.5400 Y11.1950 I1.7691 J2.7577
G01 Y11.8400
G01 X17.9712
G01 X20.3356 Y9.4758
G03 X20.7800 Y9.3000 I0.4254 J0.4259
G01 X21.8420
G01 X21.8214
G01 X21.8689 Y9.2853
G03 X22.6988 Y8.8505 I0.8346 J0.5834
G03 X22.6813 Y10.9483 I0.0125 J1.0491
G03 X21.8689 Y10.5147 I-0.0075 J-0.9638
G01 X21.8214 Y10.5000
G01 X21.8420
G01 X21.0088
G01 X18.6444 Y12.8642
G03 X18.2000 Y13.0400 I-0.4254 J-0.4259
G01 X8.0900
G02 X7.6700 Y13.0140 I-0.2940 J1.3437
G03 X7.4905 Y12.8291 I0.0200 J-0.1990
G01 X7.4900 Y12.0650
G01 X7.4910 Y12.0450
G03 X7.6365 Y11.8723 I0.1990 J0.0200
G01 X7.6400 Y11.1950
G03 X7.4805 Y11.0091 I0.0492 J-0.2036
G01 X7.4800 Y10.2450
G01 X7.4810 Y10.2250
G03 X7.6659 Y10.0455 I0.1990 J0.0200
G01 X8.4800 Y10.0450
G03 X8.6800 Y10.2000 I-0.0084 J0.2173
G01 X9.3700
G01 Y5.8368
G01 X8.7082 Y5.1750
G01 X8.5050
G01 X8.5650
G02 X8.3791 Y5.2245 I1.2897 J5.2159
G01 X8.3450 Y5.2250
G01 X6.8150
G03 X6.6155 Y5.0391 I0.0000 J-0.2000
G01 X6.6150 Y4.4250
G01 X6.6190 Y4.3853
G03 X6.8009 Y4.2255 I0.1960 J0.0397
G01 X7.1400 Y4.2250
G01 Y3.9500
G01 X7.1422 Y3.9062
G03 X7.2857 Y3.6174 I0.4624 J0.0498
G01 X9.4816 Y1.4216
G03 X9.7840 Y1.2906 I0.3176 J0.3189
G01 X11.7500 Y1.2900
G01 X11.7540 Y1.2503
G03 X11.9359 Y1.0905 I0.1960 J0.0397
G01 X12.4500 Y1.0900
G03 X12.6500 Y1.3100 I-0.0008 J0.2016
G01 X12.6490 Y2.2100
G03 X12.4641 Y2.3895 I-0.1990 J-0.0200
G01 X11.9500 Y2.3900
G03 X11.7529 Y2.2240 I0.0000 J-0.2000
G01 X11.7500 Y2.1900
G01 X9.9868
G01 X8.0400 Y4.1368
G01 Y4.2250
G01 X8.3850 Y4.2260
G02 X8.5650 Y4.2750 I0.5002 J-1.4826
G01 X8.5050
G01 X8.8950
G03 X9.2276 Y4.4207 I-0.0046 J0.4628
G01 X10.1384 Y5.3316
G03 X10.2660 Y5.5947 I-0.3171 J0.3163
G01 X10.3015 Y5.5700
G00 Z5.0000
G00 X8.5560 Y8.0900
G00 Z0.5000
G01 Z-0.1500 F2.000
G01 X8.4779 Y8.0699 F4.000
G03 X8.5650 Y8.2550 I-0.1163 J0.1677
G01 X8.5640 Y8.8550
G03 X8.3791 Y9.0345 I-0.1990 J-0.0200
G01 X6.8150 Y9.0350
G03 X6.6750 Y8.9850 I0.0485 J-0.3569
G01 X6.6418
G01 X5.7800 Y9.8465
G01 Y9.8636
G01 X5.7921 Y9.8856
G01 X6.0222 Y10.1154
G03 X6.1659 Y10.0455 I0.1657 J0.1579
G01 X6.9800 Y10.0450
G03 X7.1795 Y10.2309 I0.0000 J0.2000
G01 X7.1800 Y10.9950
G03 X6.9941 Y11.1945 I-0.2000 J0.0000
G01 X6.1800 Y11.1950
G03 X5.9800 Y11.0700 I0.0138 J-0.2445
G01 X5.8867
G01 X5.7800 Y11.1765
G01 Y11.6635
G01 X6.0380 Y11.9213
G03 X6.4290 Y11.8650 I0.2539 J0.3773
G03 X7.0679 Y11.8808 I0.2466 J2.9552
G03 X7.1895 Y12.0509 I-0.0779 J0.1842
G01 X7.1900 Y12.8414
G01 X8.0088 Y13.6600
G01 X19.5112
G01 X21.1556 Y12.0158
G03 X21.6000 Y11.8400 I0.4254 J0.4259
G01 X21.8420
G01 X21.8214
G01 X21.8689 Y11.8253
G01 X22.0066 Y11.6606
G01 X22.0351 Y11.6327
G03 X23.3426 Y13.2744 I0.6754 J0.8036
G03 X21.8420 Y13.0400 I-0.6363 J-0.8470
G01 X21.8288
G01 X20.1844 Y14.6842
G03 X19.7400 Y14.8600 I-0.4254 J-0.4259
G01 X7.7600
G03 X7.3346 Y14.6832 I0.0006 J-0.6017
G01 X6.1011 Y13.4272
G03 X5.9905 Y13.1043 I0.4353 J-0.3295
G01 X5.9900 Y12.8900
G03 X5.5874 Y12.7441 I-0.0559 J-0.4741
G01 X5.0116 Y12.1682
G03 X4.8812 Y11.8815 I0.3189 J-0.3180
G01 X4.8800 Y11.8300
G01 Y9.6600
G01 X4.8822 Y9.6164
G03 X5.0257 Y9.3276 I0.4482 J0.0427
G01 X6.1366 Y8.2168
G03 X6.4750 Y8.0850 I0.3195 J0.3200
G01 X6.6750
G01 X6.6150
G02 X6.7615 Y8.0423 I-0.1070 J-0.6398
G01 X6.8009 Y8.0355
G01 X8.3650 Y8.0350
G03 X8.4779 Y8.0699 I0.0000 J0.2000
G01 X8.5560 Y8.0900
G00 Z5.0000
G00 X8.5389 Y7.7300
G00 Z0.5000
G01 Z-0.1500 F2.000
G01 X8.4257 Y7.7549 F4.000
G01 X8.4185 Y7.7577
G01 X8.3791 Y7.7645
G01 X6.8150 Y7.7650
G02 X6.6150 Y7.7150 I-0.2932 J0.7480
G01 X6.6750
G01 X6.3918
G03 X6.0100 Y7.8900 I-0.3651 J-0.2926
G01 X5.7250
G03 X5.5391 Y8.0395 I-0.2063 J-0.0662
G01 X4.7550 Y8.0390
G03 X4.5823 Y7.8935 I0.0200 J-0.1990
G01 X4.3268 Y7.8900
G01 X3.8684 Y8.3482
G03 X3.5300 Y8.4800 I-0.3221 J-0.3269
G01 X3.5190 Y8.9000
G03 X3.3000 Y9.0800 I-0.2008 J-0.0211
G01 X1.6200
G03 X1.4205 Y8.8941 I0.0000 J-0.2000
G01 X1.4200 Y7.1800
G01 X1.4210 Y7.1600
G03 X1.6059 Y6.9805 I0.1990 J0.0200
G01 X3.3200 Y6.9800
G03 X3.5195 Y7.1659 I0.0000 J0.2000
G01 X3.5200 Y7.4200
G01 X3.5309 Y7.4123
G01 X3.8216 Y7.1216
G03 X4.1600 Y6.9900 I0.3179 J0.3166
G01 X4.5750
G03 X4.7950 Y6.8400 I0.2045 J0.0636
G01 X5.5450 Y6.8410
G03 X5.7177 Y6.9865 I-0.0200 J0.1990
G01 X5.8432 Y6.9900
G03 X6.2250 Y6.8150 I0.3651 J0.2926
G01 X6.6750
G01 X6.6150
G02 X6.7810 Y6.7679 I-0.2632 J-1.2441
G01 X6.8009 Y6.7655
G01 X8.3850 Y6.7660
G03 X8.5650 Y6.9850 I-0.0211 J0.2008
G01 Y7.5650
G03 X8.4257 Y7.7549 I-0.1982 J0.0007
G01 X8.5389 Y7.7300
G00 Z5.0000
G00 X8.3888 Y6.6500
G00 Z0.5000
G01 Z-0.1500 F2.000
G01 Y6.4933 F4.000
G03 X6.8150 Y6.4950 I-0.8088 J-20.6357
G02 X6.6150 Y6.4450 I-2.6887 J10.3299
G01 X6.6750
G01 X6.2050
G02 X5.7250 Y6.3900 I-0.4286 J1.6182
G03 X5.5050 Y6.5400 I-0.2052 J-0.0646
G01 X4.7550 Y6.5390
G03 X4.5823 Y6.3935 I0.0200 J-0.1990
G01 X3.9700 Y6.3900
G01 X3.9262 Y6.3878
G03 X3.3890 Y6.0021 I0.1897 J-0.8310
G03 X1.4300 Y5.6180 I-0.9166 J-0.5130
G01 Y5.3420
G03 X3.4127 Y5.0398 I1.0375 J0.1514
G03 X3.8526 Y5.1857 I0.0813 J0.4907
G01 X4.1568 Y5.4900
G01 X4.5750
G03 X4.7609 Y5.3405 I0.2063 J0.0662
G01 X5.5250 Y5.3400
G03 X5.7177 Y5.4865 I0.0000 J0.2000
G01 X6.1500 Y5.4900
G02 X6.6750 Y5.5450 I0.4414 J-1.6803
G01 X6.6150
G02 X6.8009 Y5.4955 I-1.2897 J-5.2159
G01 X6.8350 Y5.4950
G01 X8.3650
G03 X8.5645 Y5.6809 I0.0000 J0.2000
G01 X8.5650 Y6.2950
G03 X8.3888 Y6.4933 I-0.1994 J0.0003
G01 Y6.6500
G00 Z5.0000
G00 Y0.5300
G00 Z0.5000
G01 Z-0.1500 F2.000
G01 Y0.3000 F4.000
G01 X0.3000
G01 Y14.8000
G01 X24.8000
G01 Y0.3000
G01 X8.3888
G01 Y0.5300
G00 Z5.0000
G00 X17.4340 Y2.6900
G00 Z0.5000
G01 Z-0.1500 F2.000
G01 X17.4640 Y2.7303 F4.000
G03 X17.6800 Y2.5700 I0.1979 J0.0410
G01 X18.6600
G03 X18.8600 Y2.8200 I-0.0039 J0.2081
G01 X19.7432
G01 X20.6016 Y1.9616
G03 X20.9400 Y1.8300 I0.3179 J0.3166
G01 X21.6600
G01 Y1.4300
G01 X21.6640 Y1.3903
G03 X21.8800 Y1.2300 I0.1979 J0.0410
G01 X23.5800 Y1.2310
G03 X23.7595 Y1.4159 I-0.0200 J0.1990
G01 X23.7600 Y3.1300
G03 X23.5741 Y3.3295 I-0.2000 J0.0000
G01 X21.8400 Y3.3290
G03 X21.6605 Y3.1441 I0.0200 J-0.1990
G01 X21.6600 Y2.7300
G01 X21.1068
G01 X20.2484 Y3.5884
G03 X19.9460 Y3.7194 I-0.3146 J-0.3119
G01 X18.8600 Y3.7200
G03 X18.6400 Y3.9700 I-0.2033 J0.0429
G01 X17.6400 Y3.9690
G03 X17.4605 Y3.7841 I0.0200 J-0.1990
G01 X17.4600 Y2.7700
G01 X17.4640 Y2.7303
G01 X17.4340 Y2.6900
G00 Z5.0000
G00 X17.6359 Y4.4900
G00 Z0.5000
G01 Z-0.1500 F2.000
G01 Y4.6905 F4.000
G03 X18.6500 Y4.6900 I0.5241 J34.5610
G03 X18.8500 Y4.9400 I-0.0039 J0.2081
G01 X20.0932
G01 X20.5316 Y4.5016
G03 X20.8340 Y4.3706 I0.3146 J0.3119
G01 X21.7670 Y4.3700
G03 X22.0351 Y4.0128 I0.7772 J0.3041
G03 X23.3428 Y5.6542 I0.6758 J0.8032
G03 X21.7673 Y5.2702 I-0.6343 J-0.8217
G01 X21.0368 Y5.2700
G01 X20.5984 Y5.7084
G03 X20.2600 Y5.8400 I-0.3179 J-0.3166
G01 X18.8500
G03 X18.6300 Y6.0900 I-0.2033 J0.0429
G01 X17.6300 Y6.0890
G03 X17.4505 Y5.9041 I0.0200 J-0.1990
G01 X17.4500 Y4.8900
G01 X17.4510 Y4.8700
G03 X17.6359 Y4.6905 I0.1990 J0.0200
G01 Y4.4900
G00 Z5.0000


;No. 2: Part 11
M05
M00 
;Change tool: CNC
M03
G00 X-0.9000 Y0.1000 Z5.0000
G00 Z0.5000
G01 Z-0.7000 F2.000
G01 X-0.8950 Y0.0002
G03 X0.1200 Y-0.9000 I0.9954 J0.1000
G01 X25.0000
G03 X26.0000 Y0.1200 I-0.0001 J1.0003
G01 Y15.0000
G03 X24.9800 Y16.0000 I-1.0003 J-0.0001
G01 X0.1000
G03 X-0.8975 Y15.0707 I0.0000 J-1.0000
G01 X-0.9000 Y14.9800
G01 Y0.1000
G01 Z-1.4000
G01 X-0.8950 Y0.0002
G03 X0.1200 Y-0.9000 I0.9954 J0.1000
G01 X25.0000
G03 X26.0000 Y0.1200 I-0.0001 J1.0003
G01 Y15.0000
G03 X24.9800 Y16.0000 I-1.0003 J-0.0001
G01 X0.1000
G03 X-0.8975 Y15.0707 I0.0000 J-1.0000
G01 X-0.9000 Y14.9800
G01 Y0.1000
G01 Z-2.0000
G01 X-0.8950 Y0.0002
G03 X0.1200 Y-0.9000 I0.9954 J0.1000
G01 X25.0000
G03 X26.0000 Y0.1200 I-0.0001 J1.0003
G01 Y15.0000
G03 X24.9800 Y16.0000 I-1.0003 J-0.0001
G01 X0.1000
G03 X-0.8975 Y15.0707 I0.0000 J-1.0000
G01 X-0.9000 Y14.9800
G01 Y0.1000
G00 Z5.0000
G00 X0.0000 Y0.0000

M05
