;Project temp-F.Cu
;Created by Estlcam version 10 build 11.006
;Machining time about 00:10:34 hours

G90
M03 S24000
G00 Z5.0000 F500


;No. 1: Hole 1
G00 X0.2800 Y0.3950 F3000
G00 Z0.5000 F500
G01 Z-0.1500 F120
G01 X24.8200 F240
G01 Y0.6650
G01 X0.2800
G01 Y0.9350
G01 X24.8200
G01 X11.7915
G01 Y1.2050
G01 X0.2800
G01 Y1.4750
G01 X9.4564
G01 X9.1864 Y1.7450
G01 X0.2800
G01 Y2.0150
G01 X8.9164
G01 X8.6464 Y2.2850
G01 X0.2800
G01 Y2.5550
G01 X8.3764
G01 X8.1064 Y2.8250
G01 X0.2800
G01 Y3.0950
G01 X7.8364
G01 X7.5664 Y3.3650
G01 X0.2800
G01 Y3.6350
G01 X7.2966
G01 X7.1626 Y3.9050
G01 X0.2800
G01 Y4.1750
G01 X7.1600
G01 X6.6350
G01 Y4.4450
G01 X0.2800
G01 Y4.7150
G01 X1.7906
G01 X1.5707 Y4.9850
G01 X0.2800
G01 Y5.2550
G01 X1.4703
G01 X1.4500 Y5.5250
G01 X0.2800
G01 Y5.7950
G01 X1.4957
G01 X1.6218 Y6.0650
G01 X0.2800
G01 Y6.3350
G01 X1.8973
G01 Y6.6050
G01 X0.2800
G01 X9.3900
G01 Y6.3350
G01 X8.5401
G01 X8.5443 Y6.0650
G01 X9.3900
G01 X9.3564 Y5.7950
G01 X8.5445
G01 X8.4236 Y5.5250
G01 X9.0864
G01 X8.8164 Y5.2550
G01 X3.8936
G01 Y4.9850
G01 X3.3694
G01 X6.6354
G01 X6.6352 Y4.7150
G01 X3.1503
G00 Z5.0000 F500
G00 X12.6083 Y0.9350 F3000
G00 Z0.5000 F500
G01 Z-0.1500 F120
G01 Y1.2050 F240
G01 X13.2915
G01 X13.2708 Y1.4750
G01 X12.6298
G01 X12.6296 Y1.7450
G01 X13.2707
G01 X13.2705 Y2.0150
G01 X12.6293
G01 X12.6020 Y2.2850
G01 X13.2982
G01 Y2.5550
G01 X15.2300
G01 X9.5936
G01 X9.8636 Y2.2850
G01 X11.7982
G00 Z5.0000 F500
G00 X14.1077 Y0.9350 F3000
G00 Z0.5000 F500
G01 Z-0.1500 F120
G01 Y1.2050 F240
G01 X24.8200
G01 X21.6800
G01 Y1.4750
G01 X15.6126
G01 X15.8833 Y1.7450
G01 X21.6800
G01 X20.5764
G01 Y2.0150
G01 X16.0725
G01 X16.0900 Y2.2850
G01 X20.3064
G01 X20.0364 Y2.5550
G01 X16.0900
G01 X16.3400 Y2.8250
G01 X17.4800
G01 X17.4801 Y3.0950
G01 X16.3400
G01 Y3.3650
G01 X17.4803
G01 X17.4804 Y3.6350
G01 X16.3400
G01 X16.2781 Y3.9050
G01 X17.5423
G01 Y4.1750
G01 X13.5836
G01 X21.9205
G01 Y3.9050
G01 X22.2571
G01 X18.7780
G01 X20.1519
G01 Y3.6350
G01 X24.8200
G01 Y3.3650
G01 X20.4436
G01 X20.7136 Y3.0950
G01 X21.6804
G01 X21.6801 Y2.8250
G01 X20.9836
G00 Z5.0000 F500
G00 X23.7396 Y1.2050 F3000
G00 Z0.5000 F500
G01 Z-0.1500 F120
G01 Y1.4750 F240
G01 X24.8200
G01 Y1.7450
G01 X23.7396
G01 X23.7397 Y2.0150
G01 X24.8200
G01 Y2.2850
G01 X23.7398
G01 Y2.5550
G01 X24.8200
G01 Y2.8250
G01 X23.7399
G01 X23.7400 Y3.0950
G01 X24.8200
G00 Z5.0000 F500
G00 X15.2064 Y2.5550 F3000
G00 Z0.5000 F500
G01 Z-0.1500 F120
G01 Y2.2850 F240
G01 X14.1020
G00 Z5.0000 F500
G00 X14.9802 Y2.5550 F3000
G00 Z0.5000 F500
G01 Z-0.1500 F120
G01 Y2.8250 F240
G01 X9.3236
G01 X9.0536 Y3.0950
G01 X13.4464
G01 X13.1764 Y3.3650
G01 X8.7836
G01 X8.5136 Y3.6350
G01 X12.9064
G01 X12.6451 Y3.9050
G01 X8.2436
G01 X8.0200 Y4.1750
G01 X12.5600
G01 X12.0350
G01 Y4.4450
G01 X9.2236
G01 X9.4936 Y4.7150
G01 X12.0352
G01 X12.0354 Y4.9850
G01 X9.7636
G01 X10.0336 Y5.2550
G01 X14.9700
G01 Y4.9850
G01 X13.9450
G01 Y4.7150
G01 X15.1108
G01 X13.9450
G01 Y4.4450
G01 X20.6425
G01 X17.6108
G01 Y4.7150
G01 X16.1882
G01 X16.3295 Y4.9850
G01 X17.4700
G01 X17.4702 Y5.2550
G01 X16.3294
G01 X16.3293 Y5.5250
G01 X17.4703
G01 X17.4704 Y5.7950
G01 X16.3291
G01 X16.1891 Y6.0650
G01 X17.6097
G01 Y6.3350
G01 X15.3083
G01 X22.6685
G01 Y6.0650
G01 X24.8200
G01 X18.6892
G01 X20.4238
G01 Y5.7950
G01 X22.3803
G01 X21.9708
G01 Y5.5250
G01 X20.7536
G01 X21.0236 Y5.2550
G01 X21.7830
G00 Z5.0000 F500
G00 X19.7664 Y2.5550 F3000
G00 Z0.5000 F500
G01 Z-0.1500 F120
G01 Y2.8250 F240
G01 X18.8399
G00 Z5.0000 F500
G00 X15.0412 Y4.1750 F3000
G00 Z0.5000 F500
G01 Z-0.1500 F120
G01 Y3.9050 F240
G01 X13.8536
G00 Z5.0000 F500
G00 X23.1630 Y3.6350 F3000
G00 Z0.5000 F500
G01 Z-0.1500 F120
G01 Y3.9050 F240
G01 X24.8200
G01 Y4.1750
G01 X23.4995
G01 X23.6588 Y4.4450
G01 X24.8200
G01 Y4.7150
G01 X23.7300
G01 X23.7283 Y4.9850
G01 X24.8200
G01 Y5.2550
G01 X23.6369
G01 X23.4495 Y5.5250
G01 X24.8200
G01 Y5.7950
G01 X23.0411
G00 Z5.0000 F500
G00 X20.3464 Y4.4450 F3000
G00 Z0.5000 F500
G01 Z-0.1500 F120
G01 Y4.7150 F240
G01 X18.6913
G00 Z5.0000 F500
G00 X6.7580 Y5.2550 F3000
G00 Z0.5000 F500
G01 Z-0.1500 F120
G01 Y5.5250 F240
G01 X6.2527
G00 Z5.0000 F500
G00 X10.2302 Y5.2550 F3000
G00 Z0.5000 F500
G01 Z-0.1500 F120
G01 Y5.5250 F240
G01 X12.1580
G01 X11.2068
G01 Y5.7950
G01 X10.2500
G01 Y6.0650
G01 X10.9571
G01 X10.8900 Y6.3350
G01 X10.2500
G01 Y6.6050
G01 X10.8900
G01 X10.8901 Y6.8750
G01 X10.2500
G01 Y7.1450
G01 X10.8901
G01 Y7.4150
G01 X10.2500
G01 Y7.6850
G01 X10.8901
G01 X10.8902 Y7.9550
G01 X10.2500
G01 Y8.2250
G01 X10.8902
G01 Y8.4950
G01 X10.2500
G01 Y8.7650
G01 X10.8902
G01 X10.8903 Y9.0350
G01 X10.2500
G01 Y9.3050
G01 X10.8903
G01 Y9.5750
G01 X10.2500
G01 Y9.8450
G01 X10.8903
G01 X10.8904 Y10.1150
G01 X10.2500
G01 Y10.3850
G01 X10.8904
G01 Y10.6550
G01 X10.2500
G01 Y10.9250
G01 X10.8904
G01 X10.9174 Y11.1950
G01 X10.2220
G01 Y11.4650
G01 X8.5200
G01 X18.3745
G01 X18.6445 Y11.1950
G01 X11.7222
G01 X11.7500 Y10.9250
G01 X18.9145
G01 X19.1845 Y10.6550
G01 X11.7500
G01 Y10.3850
G01 X19.4546
G01 X19.7246 Y10.1150
G01 X11.7500
G01 Y9.8450
G01 X19.9946
G01 X20.2646 Y9.5750
G01 X11.7500
G01 Y9.3050
G01 X21.8785
G01 X22.1706 Y9.0350
G01 X11.7500
G01 Y8.7650
G01 X12.0350
G01 Y8.4950
G01 X11.7500
G01 Y8.2250
G01 X12.0360
G01 X11.7500 Y7.9550
G01 X21.8795
G01 X12.0811
G01 Y7.6850
G01 X11.7500
G01 Y7.4150
G01 X12.0356
G01 X12.0358 Y7.1450
G01 X11.7500
G01 Y6.8750
G01 X12.0601
G01 X11.7500
G01 Y6.6050
G01 X22.0123
G00 Z5.0000 F500
G00 X14.9064 Y5.2550 F3000
G00 Z0.5000 F500
G01 Z-0.1500 F120
G01 Y5.5250 F240
G01 X13.8215
G00 Z5.0000 F500
G00 X3.8017 Y6.6050 F3000
G00 Z0.5000 F500
G01 Z-0.1500 F120
G01 Y6.3350 F240
G01 X3.0441
G01 X3.3180 Y6.0650
G01 X3.4864
G00 Z5.0000 F500
G00 X22.7551 F3000
G00 Z0.5000 F500
G01 Z-0.1500 F120
G01 Y6.3350 F240
G01 X24.8200
G01 Y6.6050
G01 X23.4076
G01 X23.6179 Y6.8750
G01 X24.8200
G01 Y7.1450
G01 X23.7172
G01 X23.7300 Y7.4150
G01 X24.8200
G01 Y7.6850
G01 X23.6771
G01 X23.5415 Y7.9550
G01 X24.8200
G01 Y8.2250
G01 X23.2493
G01 X24.8200
G01 Y8.4950
G01 X13.9450
G01 X13.9446 Y8.2250
G01 X22.1717
G00 Z5.0000 F500
G00 X4.7036 Y6.6050 F3000
G00 Z0.5000 F500
G01 Z-0.1500 F120
G01 Y6.8750 F240
G01 X0.2800
G01 Y7.1450
G01 X1.4435
G01 X1.4401 Y7.4150
G01 X0.2800
G01 Y7.6850
G01 X1.4401
G01 X1.4402 Y7.9550
G01 X0.2800
G01 Y8.2250
G01 X1.4403
G01 Y8.4950
G01 X0.2800
G01 Y8.7650
G01 X1.4404
G01 X1.5302 Y9.0350
G01 X0.2800
G01 Y9.3050
G01 X5.0766
G01 X5.3466 Y9.0350
G01 X3.4111
G01 X3.5000 Y8.7650
G01 X5.6166
G01 X5.8866 Y8.4950
G01 X3.5000
G01 X3.9634
G01 Y8.2250
G01 X6.1572
G01 X5.6633
G01 Y7.9550
G01 X9.3900
G01 Y7.6850
G01 X8.4985
G01 X8.5450 Y7.4150
G01 X9.3900
G01 Y7.1450
G01 X8.5450
G01 X8.5201 Y6.8750
G01 X9.3900
G00 Z5.0000 F500
G00 X6.0228 Y6.6050 F3000
G00 Z0.5000 F500
G01 Z-0.1500 F120
G01 Y6.8750 F240
G01 X5.5965
G00 Z5.0000 F500
G00 X3.8269 F3000
G00 Z0.5000 F500
G01 Z-0.1500 F120
G01 Y7.1450 F240
G01 X3.4957
G00 Z5.0000 F500
G00 X4.2335 Y8.2250 F3000
G00 Z0.5000 F500
G01 Z-0.1500 F120
G01 Y7.9550 F240
G01 X4.6367
G00 Z5.0000 F500
G00 X8.5446 F3000
G00 Z0.5000 F500
G01 Z-0.1500 F120
G01 Y8.2250 F240
G01 X9.3900
G01 Y8.4950
G01 X8.5446
G01 X8.5442 Y8.7650
G01 X9.3900
G01 Y9.0350
G01 X6.5635
G01 X6.2934 Y9.3050
G01 X9.3900
G01 Y9.5750
G01 X6.0233
G01 X5.7600 Y9.8450
G01 X9.3900
G01 X7.5557
G01 Y10.1150
G01 X7.1037
G01 X7.1596 Y10.3850
G01 X7.5000
G01 Y10.6550
G01 X7.1598
G01 X7.1600 Y10.9250
G01 X7.5000
G01 X7.6600 Y11.1950
G01 X5.7636
G01 X5.7615 Y11.4650
G01 X7.6598
G01 X7.6595 Y11.7350
G01 X5.8274
G01 X7.1588
G01 Y12.0050
G01 X7.5211
G01 X7.5101 Y12.2750
G01 X7.1697
G01 X7.1698 Y12.5450
G01 X7.5103
G01 X7.5104 Y12.8150
G01 X7.1700
G01 X7.4054 Y13.0850
G01 X20.1145
G01 X20.3845 Y12.8150
G01 X18.6654
G01 X18.9354 Y12.5450
G01 X20.6546
G01 X20.9246 Y12.2750
G01 X19.2054
G01 X19.4754 Y12.0050
G01 X21.1972
G01 Y11.7350
G01 X21.9705
G01 X19.7455
G01 X20.0155 Y11.4650
G01 X22.3806
G01 X20.2855
G01 Y11.1950
G01 X24.8200
G01 Y10.9250
G01 X22.7514
G01 X23.4077
G01 Y10.6550
G01 X24.8200
G01 Y10.3850
G01 X23.6187
G01 X23.7169 Y10.1150
G01 X24.8200
G01 Y9.8450
G01 X23.7300
G01 X23.6770 Y9.5750
G01 X24.8200
G01 Y9.3050
G01 X23.5415
G01 X23.2484 Y9.0350
G01 X24.8200
G01 Y8.7650
G01 X13.9450
G00 Z5.0000 F500
G00 X4.9107 Y9.3050 F3000
G00 Z0.5000 F500
G01 Z-0.1500 F120
G01 Y9.5750 F240
G01 X0.2800
G01 Y9.8450
G01 X4.9000
G01 Y10.1150
G01 X0.2800
G01 Y10.3850
G01 X4.9000
G01 Y10.6550
G01 X0.2800
G01 Y10.9250
G01 X4.9000
G01 Y11.1950
G01 X0.2800
G01 Y11.4650
G01 X4.9000
G01 Y11.7350
G01 X0.2800
G01 Y12.0050
G01 X4.9296
G01 X5.1466 Y12.2750
G01 X0.2800
G01 Y12.5450
G01 X5.4166
G01 X5.7127 Y12.8150
G01 X0.2800
G01 Y13.0850
G01 X6.0104
G01 X6.0755 Y13.3550
G01 X0.2800
G01 Y13.6250
G01 X6.3233
G01 X6.5885 Y13.8950
G01 X0.2800
G01 Y14.1650
G01 X6.8536
G01 X7.1188 Y14.4350
G01 X0.2800
G01 Y14.7050
G01 X7.3893
G00 Z5.0000 F500
G00 X8.6034 Y9.8450 F3000
G00 Z0.5000 F500
G01 Z-0.1500 F120
G01 Y10.1150 F240
G01 X9.3900
G00 Z5.0000 F500
G00 X20.5555 Y11.1950 F3000
G00 Z0.5000 F500
G01 Z-0.1500 F120
G01 Y10.9250 F240
G01 X22.6639
G01 X22.0123
G01 Y10.6550
G01 X20.8255
G00 Z5.0000 F500
G00 X9.4174 Y11.4650 F3000
G00 Z0.5000 F500
G01 Z-0.1500 F120
G01 Y11.1950 F240
G01 X8.5200
G00 Z5.0000 F500
G00 X23.0387 F3000
G00 Z0.5000 F500
G01 Z-0.1500 F120
G01 Y11.4650 F240
G01 X24.8200
G01 Y11.7350
G01 X23.4495
G01 X23.6368 Y12.0050
G01 X24.8200
G01 Y12.2750
G01 X23.7289
G01 X23.7300 Y12.5450
G01 X24.8200
G01 Y12.8150
G01 X23.6588
G01 X23.4992 Y13.0850
G01 X24.8200
G01 Y13.3550
G01 X23.1627
G01 X24.8200
G01 Y13.6250
G01 X21.2155
G01 X21.4855 Y13.3550
G01 X22.2581
G01 X21.9204
G01 Y13.0850
G01 X21.7555
G00 Z5.0000 F500
G00 X18.1045 Y11.4650 F3000
G00 Z0.5000 F500
G01 Z-0.1500 F120
G01 Y11.7350 F240
G01 X8.5200
G00 Z5.0000 F500
G00 X7.6754 Y13.0850 F3000
G00 Z0.5000 F500
G01 Z-0.1500 F120
G01 Y13.3550 F240
G01 X19.8445
G01 X19.5745 Y13.6250
G01 X7.9455
G00 Z5.0000 F500
G00 X24.8200 F3000
G00 Z0.5000 F500
G01 Z-0.1500 F120
G01 Y13.8950 F240
G01 X20.9454
G01 X20.6754 Y14.1650
G01 X24.8200
G01 Y14.4350
G01 X20.4054
G01 X20.1318 Y14.7050
G01 X24.8200
G00 Z5.0000 F500
G00 X23.0411 Y5.7950 F3000
G00 Z0.5000 F500
G01 Z-0.1500 F120
G01 X23.0373 Y5.7652 F240
G01 X22.8573 Y5.8087
G01 X22.6723 Y5.8181
G01 X22.4888 Y5.7930
G01 X22.3131 Y5.7343
G01 X22.1513 Y5.6440
G01 X22.0091 Y5.5253
G01 X21.8913 Y5.3823
G01 X21.8021 Y5.2200
G01 X21.0161
G01 X20.5631 Y5.6731
G01 X20.4981 Y5.7255
G01 X20.4238 Y5.7634
G01 X20.3433 Y5.7852
G01 X20.2600 Y5.7900
G01 X18.8000
G01 X18.8138 Y5.8332
G01 X18.8161 Y5.8785
G01 X18.8067 Y5.9229
G01 X18.7862 Y5.9634
G01 X18.7561 Y5.9974
G01 X18.7183 Y6.0224
G01 X18.6753 Y6.0370
G01 X18.6300 Y6.0400
G01 X17.6500
G01 X17.6220 Y6.0374
G01 X17.5951 Y6.0296
G01 X17.5700 Y6.0169
G01 X17.5478 Y5.9998
G01 X17.5291 Y5.9788
G01 X17.5147 Y5.9547
G01 X17.5050 Y5.9283
G01 X17.5004 Y5.9006
G01 X17.5000 Y4.8900
G01 X17.5030 Y4.8602
G01 X17.5113 Y4.8333
G01 X17.5244 Y4.8083
G01 X17.5419 Y4.7862
G01 X17.5632 Y4.7677
G01 X17.5875 Y4.7534
G01 X17.6140 Y4.7439
G01 X17.6418 Y4.7393
G01 X17.6700 Y4.7400
G01 X18.6500
G01 X18.6914 Y4.7487
G01 X18.7297 Y4.7669
G01 X18.7626 Y4.7934
G01 X18.7885 Y4.8269
G01 X18.8059 Y4.8655
G01 X18.8138 Y4.9071
G01 X18.8118 Y4.9493
G01 X18.8000 Y4.9900
G01 X20.1139
G01 X20.5669 Y4.5369
G01 X20.6250 Y4.4887
G01 X20.6912 Y4.4523
G01 X20.7631 Y4.4293
G01 X20.8380 Y4.4205
G01 X21.8021 Y4.4200
G01 X21.8360 Y4.3297
G01 X21.9504 Y4.1661
G01 X22.0951 Y4.0286
G01 X22.2642 Y3.9225
G01 X22.4510 Y3.8521
G01 X22.6480 Y3.8202
G01 X22.8475 Y3.8281
G01 X23.0414 Y3.8755
G01 X23.2221 Y3.9604
G01 X23.3822 Y4.0795
G01 X23.5156 Y4.2281
G01 X23.6167 Y4.4002
G01 X23.6817 Y4.5889
G01 X23.7079 Y4.7868
G01 X23.6943 Y4.9860
G01 X23.6413 Y5.1784
G01 X23.5512 Y5.3566
G01 X23.4490 Y5.4884
G01 X23.3272 Y5.6023
G01 X23.1888 Y5.6953
G01 X23.0373 Y5.7652
G01 X23.0411 Y5.7950
G00 Z5.0000 F500
G00 Y3.3650 F3000
G00 Z0.5000 F500
G01 Z-0.1500 F120
G01 Y3.2800 F240
G01 X21.8600
G01 X21.8320 Y3.2774
G01 X21.8051 Y3.2696
G01 X21.7800 Y3.2569
G01 X21.7578 Y3.2398
G01 X21.7391 Y3.2188
G01 X21.7247 Y3.1947
G01 X21.7150 Y3.1683
G01 X21.7104 Y3.1406
G01 X21.7100 Y3.1100
G01 Y2.6900
G01 X21.7000 Y2.6800
G01 X21.0861
G01 X20.2131 Y3.5531
G01 X20.1549 Y3.6012
G01 X20.0887 Y3.6374
G01 X20.0169 Y3.6605
G01 X19.9420 Y3.6695
G01 X18.8100 Y3.6700
G01 X18.8244 Y3.7133
G01 X18.8271 Y3.7588
G01 X18.8179 Y3.8035
G01 X18.7974 Y3.8442
G01 X18.7671 Y3.8783
G01 X18.7289 Y3.9033
G01 X18.6855 Y3.9175
G01 X18.6400 Y3.9200
G01 X17.6450 Y3.9193
G01 X17.6193 Y3.9144
G01 X17.5948 Y3.9051
G01 X17.5722 Y3.8916
G01 X17.5524 Y3.8745
G01 X17.5358 Y3.8542
G01 X17.5231 Y3.8313
G01 X17.5145 Y3.8065
G01 X17.5104 Y3.7806
G01 X17.5100 Y2.7700
G01 X17.5130 Y2.7402
G01 X17.5197 Y2.7168
G01 X17.5302 Y2.6948
G01 X17.5441 Y2.6748
G01 X17.5610 Y2.6573
G01 X17.5805 Y2.6428
G01 X17.6022 Y2.6316
G01 X17.6253 Y2.6241
G01 X17.6494 Y2.6204
G01 X18.6600 Y2.6200
G01 X18.7014 Y2.6287
G01 X18.7397 Y2.6469
G01 X18.7726 Y2.6734
G01 X18.7985 Y2.7069
G01 X18.8159 Y2.7455
G01 X18.8238 Y2.7871
G01 X18.8218 Y2.8293
G01 X18.8100 Y2.8700
G01 X19.7639
G01 X20.6369 Y1.9969
G01 X20.6950 Y1.9487
G01 X20.7612 Y1.9123
G01 X20.8331 Y1.8893
G01 X20.9080 Y1.8805
G01 X21.7000 Y1.8800
G01 X21.7100 Y1.8700
G01 Y1.4300
G01 X21.7107 Y1.4150
G01 X21.7169 Y1.3856
G01 X21.7287 Y1.3580
G01 X21.7457 Y1.3332
G01 X21.7672 Y1.3122
G01 X21.7925 Y1.2959
G01 X21.8204 Y1.2848
G01 X21.8500 Y1.2795
G01 X21.8800 Y1.2800
G01 X23.5600
G01 X23.5880 Y1.2826
G01 X23.6149 Y1.2904
G01 X23.6400 Y1.3031
G01 X23.6622 Y1.3202
G01 X23.6809 Y1.3412
G01 X23.6953 Y1.3653
G01 X23.7050 Y1.3917
G01 X23.7096 Y1.4194
G01 X23.7100 Y3.1300
G01 X23.7064 Y3.1617
G01 X23.6963 Y3.1920
G01 X23.6801 Y3.2195
G01 X23.6586 Y3.2430
G01 X23.6325 Y3.2615
G01 X23.6032 Y3.2742
G01 X23.5719 Y3.2804
G01 X23.5400 Y3.2800
G01 X23.0411
G01 Y3.3650
G00 Z5.0000 F500
G00 X16.3400 F3000
G00 Z0.5000 F500
G01 Z-0.1500 F120
G01 X16.3100 F240
G01 Y3.7700
G01 X16.3074 Y3.7980
G01 X16.2996 Y3.8249
G01 X16.2869 Y3.8500
G01 X16.2698 Y3.8722
G01 X16.2488 Y3.8909
G01 X16.2247 Y3.9053
G01 X16.1983 Y3.9150
G01 X16.1706 Y3.9196
G01 X15.1450 Y3.9193
G01 X15.1193 Y3.9144
G01 X15.0948 Y3.9051
G01 X15.0722 Y3.8916
G01 X15.0524 Y3.8745
G01 X15.0358 Y3.8542
G01 X15.0231 Y3.8313
G01 X15.0145 Y3.8065
G01 X15.0104 Y3.7806
G01 X15.0100 Y3.6700
G01 X14.0461
G01 X13.4451 Y4.2711
G01 X13.4600 Y4.2750
G01 X13.7650
G01 X13.7930 Y4.2776
G01 X13.8199 Y4.2854
G01 X13.8450 Y4.2981
G01 X13.8672 Y4.3152
G01 X13.8859 Y4.3362
G01 X13.9003 Y4.3603
G01 X13.9100 Y4.3867
G01 X13.9146 Y4.4144
G01 X13.9143 Y5.0400
G01 X13.9080 Y5.0694
G01 X13.8962 Y5.0970
G01 X13.8792 Y5.1217
G01 X13.8577 Y5.1426
G01 X13.8325 Y5.1590
G01 X13.8046 Y5.1701
G01 X13.7750 Y5.1755
G01 X13.7450 Y5.1750
G01 X12.2150
G01 X12.1870 Y5.1724
G01 X12.1601 Y5.1646
G01 X12.1350 Y5.1519
G01 X12.1128 Y5.1348
G01 X12.0941 Y5.1138
G01 X12.0797 Y5.0897
G01 X12.0700 Y5.0633
G01 X12.0654 Y5.0356
G01 X12.0650 Y4.4250
G01 X12.0687 Y4.3933
G01 X12.0788 Y4.3631
G01 X12.0950 Y4.3356
G01 X12.1166 Y4.3122
G01 X12.1426 Y4.2937
G01 X12.1719 Y4.2810
G01 X12.2031 Y4.2747
G01 X12.2350 Y4.2750
G01 X12.5900
G01 Y4.1600
G01 X12.5919 Y4.1216
G01 X12.6060 Y4.0492
G01 X12.6329 Y3.9804
G01 X12.6716 Y3.9176
G01 X12.7211 Y3.8628
G01 X13.5969 Y2.9869
G01 X13.6550 Y2.9387
G01 X13.7212 Y2.9023
G01 X13.7931 Y2.8793
G01 X13.8680 Y2.8705
G01 X15.0100 Y2.8700
G01 Y2.7700
G01 X15.0130 Y2.7402
G01 X15.0279 Y2.7047
G01 X15.0497 Y2.6730
G01 X15.0775 Y2.6464
G01 X15.1102 Y2.6261
G01 X15.1464 Y2.6129
G01 X15.1845 Y2.6074
G01 X15.2229 Y2.6098
G01 X15.2600 Y2.6200
G01 Y2.2961
G01 X15.1039 Y2.1400
G01 X14.1000
G01 X14.1054 Y2.1781
G01 X14.1016 Y2.2163
G01 X14.0887 Y2.2525
G01 X14.0675 Y2.2846
G01 X14.0392 Y2.3107
G01 X14.0056 Y2.3293
G01 X13.9684 Y2.3392
G01 X13.9300 Y2.3400
G01 X13.4350 Y2.3393
G01 X13.4093 Y2.3344
G01 X13.3848 Y2.3251
G01 X13.3622 Y2.3116
G01 X13.3424 Y2.2945
G01 X13.3258 Y2.2742
G01 X13.3131 Y2.2513
G01 X13.3045 Y2.2265
G01 X13.3004 Y2.2006
G01 X13.3007 Y1.2750
G01 X13.3069 Y1.2456
G01 X13.3187 Y1.2179
G01 X13.3356 Y1.1931
G01 X13.3572 Y1.1722
G01 X13.3824 Y1.1558
G01 X13.4104 Y1.1448
G01 X13.4399 Y1.1394
G01 X13.4700 Y1.1400
G01 X13.9500
G01 X13.9852 Y1.1455
G01 X14.0184 Y1.1585
G01 X14.0479 Y1.1785
G01 X14.0723 Y1.2045
G01 X14.0904 Y1.2352
G01 X14.1014 Y1.2692
G01 X14.1046 Y1.3047
G01 X14.1000 Y1.3400
G01 X15.2700
G01 X15.3115 Y1.3424
G01 X15.3525 Y1.3488
G01 X15.3927 Y1.3593
G01 X15.4316 Y1.3737
G01 X15.6022 Y1.4961
G01 X15.7588 Y1.6359
G01 X15.8997 Y1.7916
G01 X16.0233 Y1.9613
G01 X16.0632 Y2.1230
G01 X16.0827 Y2.2884
G01 X16.0817 Y2.4549
G01 X16.0600 Y2.6200
G01 X16.1032 Y2.6062
G01 X16.1485 Y2.6039
G01 X16.1929 Y2.6133
G01 X16.2334 Y2.6338
G01 X16.2674 Y2.6639
G01 X16.2924 Y2.7017
G01 X16.3070 Y2.7447
G01 X16.3100 Y2.7900
G01 Y3.3650
G01 X16.3400
G00 Z5.0000 F500
G00 X16.1882 Y4.7150 F3000
G00 Z0.5000 F500
G01 Z-0.1500 F120
G01 X16.1650 Y4.7407 F240
G01 X16.1907 Y4.7456
G01 X16.2152 Y4.7549
G01 X16.2378 Y4.7684
G01 X16.2576 Y4.7855
G01 X16.2742 Y4.8058
G01 X16.2869 Y4.8287
G01 X16.2955 Y4.8535
G01 X16.2996 Y4.8794
G01 X16.2993 Y5.9050
G01 X16.2944 Y5.9307
G01 X16.2851 Y5.9552
G01 X16.2716 Y5.9778
G01 X16.2545 Y5.9976
G01 X16.2342 Y6.0142
G01 X16.2113 Y6.0269
G01 X16.1865 Y6.0355
G01 X16.1606 Y6.0396
G01 X15.5661 Y6.0400
G01 X15.3281 Y6.2781
G01 X15.2632 Y6.3305
G01 X15.1888 Y6.3684
G01 X15.1083 Y6.3902
G01 X15.0250 Y6.3950
G01 X13.8850
G01 X13.9150
G01 X13.8819 Y6.4119
G01 X13.8475 Y6.4259
G01 X13.8119 Y6.4368
G01 X13.7756 Y6.4446
G01 X13.7450 Y6.4450
G01 X12.2150
G01 X12.1770 Y6.4339
G01 X12.1394 Y6.4219
G01 X12.1020 Y6.4089
G01 X12.0650 Y6.3950
G01 X12.0950
G01 X11.7811
G01 X11.7200 Y6.4561
G01 Y11.1000
G01 X11.7164 Y11.1317
G01 X11.7063 Y11.1620
G01 X11.6901 Y11.1894
G01 X11.6685 Y11.2129
G01 X11.6425 Y11.2314
G01 X11.6132 Y11.2441
G01 X11.5819 Y11.2504
G01 X11.5500 Y11.2500
G01 X11.0700
G01 X11.0420 Y11.2474
G01 X11.0151 Y11.2396
G01 X10.9900 Y11.2269
G01 X10.9678 Y11.2098
G01 X10.9491 Y11.1888
G01 X10.9347 Y11.1647
G01 X10.9250 Y11.1383
G01 X10.9204 Y11.1106
G01 X10.9200 Y6.2900
G01 X10.9219 Y6.2577
G01 X10.9260 Y6.2256
G01 X10.9323 Y6.1938
G01 X10.9408 Y6.1626
G01 X11.0403 Y5.9930
G01 X11.1669 Y5.8427
G01 X11.3170 Y5.7159
G01 X11.4864 Y5.6162
G01 X11.6376 Y5.5947
G01 X11.7899 Y5.5840
G01 X11.9427 Y5.5841
G01 X12.0950 Y5.5950
G01 X12.0650
G01 X12.0981 Y5.5781
G01 X12.1325 Y5.5641
G01 X12.1681 Y5.5532
G01 X12.2044 Y5.5454
G01 X12.2350 Y5.5450
G01 X13.7650
G01 X13.8030 Y5.5561
G01 X13.8406 Y5.5681
G01 X13.8780 Y5.5811
G01 X13.9150 Y5.5950
G01 X13.8850
G01 X14.8789
G01 X15.0000 Y5.4739
G01 X15.0007 Y4.8750
G01 X15.0069 Y4.8456
G01 X15.0187 Y4.8180
G01 X15.0357 Y4.7932
G01 X15.0572 Y4.7722
G01 X15.0825 Y4.7559
G01 X15.1104 Y4.7448
G01 X15.1400 Y4.7395
G01 X15.1700 Y4.7400
G01 X16.1650 Y4.7407
G01 X16.1882 Y4.7150
G00 Z5.0000 F500
G00 Y6.6050 F3000
G00 Z0.5000 F500
G01 Z-0.1500 F120
G01 Y6.8650 F240
G01 X21.8368
G01 X21.9520 Y6.7022
G01 X22.0971 Y6.5655
G01 X22.2665 Y6.4602
G01 X22.4533 Y6.3906
G01 X22.6503 Y6.3595
G01 X22.8495 Y6.3680
G01 X23.0431 Y6.4158
G01 X23.2234 Y6.5011
G01 X23.3831 Y6.6204
G01 X23.5161 Y6.7690
G01 X23.6169 Y6.9411
G01 X23.6816 Y7.1297
G01 X23.7077 Y7.3274
G01 X23.6940 Y7.5263
G01 X23.6411 Y7.7186
G01 X23.5512 Y7.8966
G01 X23.4362 Y8.0441
G01 X23.2955 Y8.1675
G01 X23.1342 Y8.2623
G01 X22.9579 Y8.3251
G01 X22.7730 Y8.3539
G01 X22.5860 Y8.3474
G01 X22.4036 Y8.3060
G01 X22.2321 Y8.2312
G01 X22.0777 Y8.1255
G01 X21.9458 Y7.9927
G01 X21.8412 Y7.8376
G01 X21.7675 Y7.6656
G01 X13.7659 Y7.7150
G01 X12.2150
G01 X12.1870 Y7.7124
G01 X12.1601 Y7.7046
G01 X12.1350 Y7.6919
G01 X12.1128 Y7.6748
G01 X12.0941 Y7.6538
G01 X12.0797 Y7.6297
G01 X12.0700 Y7.6033
G01 X12.0654 Y7.5756
G01 X12.0657 Y6.9500
G01 X12.0720 Y6.9206
G01 X12.0838 Y6.8930
G01 X12.1008 Y6.8683
G01 X12.1223 Y6.8474
G01 X12.1475 Y6.8310
G01 X12.1754 Y6.8199
G01 X12.2050 Y6.8145
G01 X12.2350 Y6.8150
G01 X13.7650
G01 X13.8030 Y6.8261
G01 X13.8406 Y6.8381
G01 X13.8780 Y6.8511
G01 X13.9150 Y6.8650
G01 X13.8850
G01 X16.1882
G01 Y6.6050
G00 Z5.0000 F500
G00 X13.9446 Y8.2250 F3000
G00 Z0.5000 F500
G01 Z-0.1500 F120
G01 X13.8912 Y8.1540 F240
G01 X13.9032 Y8.1774
G01 X13.9113 Y8.2025
G01 X13.9153 Y8.2286
G01 X13.9150 Y8.2550
G01 Y8.8350
G01 X13.9114 Y8.8667
G01 X13.9013 Y8.8970
G01 X13.8851 Y8.9244
G01 X13.8635 Y8.9479
G01 X13.8375 Y8.9664
G01 X13.8082 Y8.9791
G01 X13.7769 Y8.9854
G01 X13.7450 Y8.9850
G01 X12.2150
G01 X12.1870 Y8.9824
G01 X12.1601 Y8.9746
G01 X12.1350 Y8.9619
G01 X12.1128 Y8.9448
G01 X12.0941 Y8.9238
G01 X12.0797 Y8.8997
G01 X12.0700 Y8.8733
G01 X12.0654 Y8.8456
G01 X12.0650 Y8.8150
G01 Y8.2350
G01 X12.0680 Y8.2052
G01 X12.0747 Y8.1818
G01 X12.0852 Y8.1598
G01 X12.0991 Y8.1398
G01 X12.1160 Y8.1223
G01 X12.1355 Y8.1078
G01 X12.1572 Y8.0966
G01 X12.1803 Y8.0891
G01 X12.2044 Y8.0854
G01 X13.7650 Y8.0850
G01 X13.8021 Y8.0897
G01 X13.8369 Y8.1034
G01 X13.8672 Y8.1252
G01 X13.8912 Y8.1540
G01 X13.9446 Y8.2250
G00 Z5.0000 F500
G00 X8.5446 F3000
G00 Z0.5000 F500
G01 Z-0.1500 F120
G01 X8.5150 Y8.2550 F240
G01 X8.5143 Y8.8500
G01 X8.5094 Y8.8757
G01 X8.5001 Y8.9002
G01 X8.4866 Y8.9228
G01 X8.4695 Y8.9426
G01 X8.4492 Y8.9592
G01 X8.4263 Y8.9719
G01 X8.4015 Y8.9805
G01 X8.3756 Y8.9846
G01 X6.8150 Y8.9850
G01 X6.7770 Y8.9739
G01 X6.7394 Y8.9619
G01 X6.7020 Y8.9489
G01 X6.6650 Y8.9350
G01 X6.6950
G01 X6.6211
G01 X5.7300 Y9.8257
G01 Y9.8942
G01 X6.0367 Y10.2007
G01 X6.0562 Y10.1603
G01 X6.0868 Y10.1275
G01 X6.1256 Y10.1052
G01 X6.1694 Y10.0954
G01 X6.9950 Y10.0957
G01 X7.0207 Y10.1006
G01 X7.0452 Y10.1099
G01 X7.0678 Y10.1234
G01 X7.0876 Y10.1405
G01 X7.1042 Y10.1608
G01 X7.1169 Y10.1837
G01 X7.1255 Y10.2085
G01 X7.1296 Y10.2344
G01 X7.1300 Y10.9950
G01 X7.1274 Y11.0230
G01 X7.1196 Y11.0499
G01 X7.1069 Y11.0750
G01 X7.0898 Y11.0972
G01 X7.0688 Y11.1159
G01 X7.0447 Y11.1303
G01 X7.0183 Y11.1400
G01 X6.9906 Y11.1446
G01 X6.1650 Y11.1443
G01 X6.1411 Y11.1399
G01 X6.1182 Y11.1317
G01 X6.0969 Y11.1198
G01 X6.0778 Y11.1048
G01 X6.0613 Y11.0868
G01 X6.0481 Y11.0664
G01 X6.0383 Y11.0441
G01 X6.0322 Y11.0205
G01 X5.8661 Y11.0200
G01 X5.7300 Y11.1558
G01 Y11.6842
G01 X6.0451 Y11.9991
G01 X6.0764 Y11.9623
G01 X6.1163 Y11.9348
G01 X6.1618 Y11.9187
G01 X6.2100 Y11.9150
G01 X6.4426
G01 X6.4841 Y11.9007
G01 X6.6286 Y11.9083
G01 X6.7730 Y11.9162
G01 X6.9175 Y11.9246
G01 X7.0619 Y11.9334
G01 X7.0922 Y11.9552
G01 X7.1162 Y11.9840
G01 X7.1323 Y12.0177
G01 X7.1396 Y12.0544
G01 X7.1400 Y12.8622
G01 X7.9881 Y13.7100
G01 X19.5319
G01 X21.1909 Y12.0511
G01 X21.2279 Y12.0176
G01 X21.3787 Y11.9379
G01 X21.5420 Y11.8888
G01 X21.7118 Y11.8719
G01 X21.8816 Y11.8881
G01 X22.0449 Y11.6927
G01 X22.0663 Y11.6718
G01 X22.2305 Y11.5597
G01 X22.4136 Y11.4823
G01 X22.6084 Y11.4427
G01 X22.8072 Y11.4424
G01 X23.0021 Y11.4814
G01 X23.1854 Y11.5583
G01 X23.3499 Y11.6698
G01 X23.4891 Y11.8117
G01 X23.5975 Y11.9783
G01 X23.6708 Y12.1631
G01 X23.7060 Y12.3587
G01 X23.7019 Y12.5575
G01 X23.6586 Y12.7514
G01 X23.5777 Y12.9330
G01 X23.4625 Y13.0950
G01 X23.3176 Y13.2310
G01 X23.2046 Y13.3070
G01 X23.0822 Y13.3668
G01 X22.9528 Y13.4092
G01 X22.8188 Y13.4335
G01 X22.6827 Y13.4391
G01 X22.5472 Y13.4261
G01 X22.4147 Y13.3945
G01 X22.2878 Y13.3451
G01 X22.1689 Y13.2787
G01 X22.0602 Y13.1966
G01 X21.9638 Y13.1004
G01 X21.8816 Y12.9919
G01 X21.8566 Y12.9900
G01 X21.8081
G01 X20.1491 Y14.6489
G01 X20.0612 Y14.7195
G01 X19.9610 Y14.7712
G01 X19.8524 Y14.8018
G01 X19.7400 Y14.8100
G01 X7.7600
G01 X7.6524 Y14.7993
G01 X7.5490 Y14.7678
G01 X7.4537 Y14.7168
G01 X7.3702 Y14.6481
G01 X6.1401 Y13.3959
G01 X6.1019 Y13.3272
G01 X6.0723 Y13.2544
G01 X6.0517 Y13.1785
G01 X6.0404 Y13.1007
G01 X6.0400 Y12.8500
G01 X5.9260 Y12.8529
G01 X5.8145 Y12.8293
G01 X5.7115 Y12.7803
G01 X5.6228 Y12.7087
G01 X5.0469 Y12.1329
G01 X5.0035 Y12.0813
G01 X4.9694 Y12.0232
G01 X4.9455 Y11.9602
G01 X4.9327 Y11.8940
G01 X4.9300 Y11.8300
G01 Y9.6600
G01 X4.9319 Y9.6218
G01 X4.9455 Y9.5492
G01 X4.9723 Y9.4803
G01 X5.0112 Y9.4175
G01 X5.0611 Y9.3630
G01 X6.1719 Y8.2521
G01 X6.2370 Y8.2000
G01 X6.3113 Y8.1621
G01 X6.3918 Y8.1401
G01 X6.4750 Y8.1350
G01 X6.6950
G01 X6.6650
G01 X6.6981 Y8.1181
G01 X6.7325 Y8.1041
G01 X6.7681 Y8.0932
G01 X6.8044 Y8.0854
G01 X6.8350 Y8.0850
G01 X8.3800 Y8.0857
G01 X8.4094 Y8.0919
G01 X8.4370 Y8.1037
G01 X8.4618 Y8.1207
G01 X8.4828 Y8.1422
G01 X8.4991 Y8.1675
G01 X8.5102 Y8.1954
G01 X8.5155 Y8.2250
G01 X8.5150 Y8.2550
G01 X8.5446 Y8.2250
G00 Z5.0000 F500
G00 X8.4985 Y7.6850 F3000
G00 Z0.5000 F500
G01 Z-0.1500 F120
G01 X8.4051 Y7.7095 F240
G01 X8.3756 Y7.7146
G01 X6.8150 Y7.7150
G01 X6.7770 Y7.7039
G01 X6.7394 Y7.6919
G01 X6.7020 Y7.6789
G01 X6.6650 Y7.6650
G01 X6.6950
G01 X6.3711
G01 X6.2997 Y7.7407
G01 X6.2121 Y7.7970
G01 X6.1137 Y7.8308
G01 X6.0100 Y7.8400
G01 X5.6850
G01 X5.6795 Y7.8680
G01 X5.6693 Y7.8946
G01 X5.6549 Y7.9192
G01 X5.6365 Y7.9410
G01 X5.6147 Y7.9594
G01 X5.5902 Y7.9739
G01 X5.5636 Y7.9841
G01 X5.5356 Y7.9896
G01 X4.7600 Y7.9893
G01 X4.7361 Y7.9849
G01 X4.7132 Y7.9767
G01 X4.6919 Y7.9648
G01 X4.6728 Y7.9498
G01 X4.6563 Y7.9318
G01 X4.6431 Y7.9114
G01 X4.6333 Y7.8891
G01 X4.6272 Y7.8655
G01 X4.6250 Y7.8400
G01 X4.3061
G01 X3.8330 Y8.3129
G01 X3.7546 Y8.3724
G01 X3.6649 Y8.4130
G01 X3.5684 Y8.4325
G01 X3.4700 Y8.4300
G01 Y8.8800
G01 X3.4664 Y8.9117
G01 X3.4563 Y8.9420
G01 X3.4401 Y8.9694
G01 X3.4185 Y8.9929
G01 X3.3925 Y9.0114
G01 X3.3632 Y9.0241
G01 X3.3319 Y9.0304
G01 X3.3000 Y9.0300
G01 X1.6200
G01 X1.5920 Y9.0274
G01 X1.5651 Y9.0196
G01 X1.5400 Y9.0069
G01 X1.5178 Y8.9898
G01 X1.4991 Y8.9688
G01 X1.4847 Y8.9447
G01 X1.4750 Y8.9183
G01 X1.4704 Y8.8906
G01 X1.4700 Y7.1800
G01 X1.4730 Y7.1502
G01 X1.4797 Y7.1268
G01 X1.4902 Y7.1048
G01 X1.5041 Y7.0848
G01 X1.5210 Y7.0673
G01 X1.5405 Y7.0528
G01 X1.5622 Y7.0416
G01 X1.5853 Y7.0341
G01 X1.6094 Y7.0304
G01 X3.3200 Y7.0300
G01 X3.3480 Y7.0326
G01 X3.3749 Y7.0404
G01 X3.4000 Y7.0531
G01 X3.4222 Y7.0702
G01 X3.4409 Y7.0912
G01 X3.4553 Y7.1153
G01 X3.4650 Y7.1417
G01 X3.4696 Y7.1694
G01 X3.4700 Y7.5400
G01 X3.4814 Y7.5325
G01 X3.8569 Y7.1569
G01 X3.9217 Y7.1043
G01 X3.9960 Y7.0662
G01 X4.0766 Y7.0445
G01 X4.1600 Y7.0400
G01 X4.6250
G01 X4.6257 Y7.0250
G01 X4.6319 Y6.9956
G01 X4.6437 Y6.9680
G01 X4.6607 Y6.9432
G01 X4.6822 Y6.9222
G01 X4.7075 Y6.9059
G01 X4.7354 Y6.8948
G01 X4.7650 Y6.8895
G01 X4.7950 Y6.8900
G01 X5.5400 Y6.8907
G01 X5.5670 Y6.8960
G01 X5.5926 Y6.9061
G01 X5.6160 Y6.9207
G01 X5.6362 Y6.9394
G01 X5.6528 Y6.9614
G01 X5.6650 Y6.9861
G01 X5.6725 Y7.0126
G01 X5.6750 Y7.0400
G01 X5.8639
G01 X5.9353 Y6.9643
G01 X6.0229 Y6.9080
G01 X6.1213 Y6.8742
G01 X6.2250 Y6.8650
G01 X6.6950
G01 X6.6650
G01 X6.6987 Y6.8495
G01 X6.7332 Y6.8360
G01 X6.7685 Y6.8246
G01 X6.8044 Y6.8154
G01 X8.3800 Y6.8157
G01 X8.4094 Y6.8220
G01 X8.4370 Y6.8338
G01 X8.4617 Y6.8508
G01 X8.4826 Y6.8723
G01 X8.4990 Y6.8975
G01 X8.5101 Y6.9254
G01 X8.5155 Y6.9550
G01 X8.5150 Y6.9850
G01 Y7.5650
G01 X8.5130 Y7.5893
G01 X8.5071 Y7.6129
G01 X8.4975 Y7.6353
G01 X8.4844 Y7.6558
G01 X8.4682 Y7.6739
G01 X8.4492 Y7.6892
G01 X8.4280 Y7.7011
G01 X8.4051 Y7.7095
G01 X8.4985 Y7.6850
G00 Z5.0000 F500
G00 X8.3756 Y6.6050 F3000
G00 Z0.5000 F500
G01 Z-0.1500 F120
G01 Y6.4446 F240
G01 X7.9855 Y6.4483
G01 X7.5953 Y6.4496
G01 X7.2051 Y6.4485
G01 X6.8150 Y6.4450
G01 X6.7770 Y6.4339
G01 X6.7394 Y6.4219
G01 X6.7020 Y6.4089
G01 X6.6650 Y6.3950
G01 X6.6950
G01 X6.2050
G01 X6.0782 Y6.3594
G01 X5.9481 Y6.3382
G01 X5.8165 Y6.3317
G01 X5.6850 Y6.3400
G01 X5.6786 Y6.3718
G01 X5.6663 Y6.4017
G01 X5.6484 Y6.4287
G01 X5.6256 Y6.4517
G01 X5.5988 Y6.4699
G01 X5.5691 Y6.4827
G01 X5.5374 Y6.4895
G01 X5.5050 Y6.4900
G01 X4.7600 Y6.4893
G01 X4.7361 Y6.4849
G01 X4.7132 Y6.4767
G01 X4.6919 Y6.4648
G01 X4.6728 Y6.4498
G01 X4.6563 Y6.4318
G01 X4.6431 Y6.4114
G01 X4.6333 Y6.3891
G01 X4.6272 Y6.3655
G01 X4.6250 Y6.3400
G01 X3.9700
G01 X3.8870 Y6.3315
G01 X3.8075 Y6.3060
G01 X3.7351 Y6.2645
G01 X3.6728 Y6.2089
G01 X3.3806 Y5.9168
G01 X3.3004 Y6.0562
G01 X3.1989 Y6.1810
G01 X3.0787 Y6.2879
G01 X2.9430 Y6.3743
G01 X2.7953 Y6.4378
G01 X2.6392 Y6.4769
G01 X2.4789 Y6.4906
G01 X2.3185 Y6.4784
G01 X2.1622 Y6.4408
G01 X2.0138 Y6.3786
G01 X1.8773 Y6.2935
G01 X1.7561 Y6.1877
G01 X1.6535 Y6.0639
G01 X1.5719 Y5.9252
G01 X1.5136 Y5.7753
G01 X1.4800 Y5.6180
G01 Y5.3420
G01 X1.5162 Y5.1855
G01 X1.5772 Y5.0369
G01 X1.6612 Y4.9000
G01 X1.7662 Y4.7784
G01 X1.8893 Y4.6753
G01 X2.0274 Y4.5933
G01 X2.1769 Y4.5346
G01 X2.3339 Y4.5007
G01 X2.4944 Y4.4924
G01 X2.6540 Y4.5101
G01 X2.8087 Y4.5532
G01 X2.9545 Y4.6206
G01 X3.0876 Y4.7106
G01 X3.2044 Y4.8208
G01 X3.3020 Y4.9484
G01 X3.3779 Y5.0900
G01 X3.4870 Y5.0786
G01 X3.5959 Y5.0929
G01 X3.6984 Y5.1320
G01 X3.7890 Y5.1939
G01 X4.1361 Y5.5400
G01 X4.6250
G01 X4.6257 Y5.5250
G01 X4.6306 Y5.4993
G01 X4.6399 Y5.4748
G01 X4.6534 Y5.4522
G01 X4.6705 Y5.4324
G01 X4.6908 Y5.4158
G01 X4.7137 Y5.4031
G01 X4.7385 Y5.3945
G01 X4.7644 Y5.3904
G01 X5.5250 Y5.3900
G01 X5.5543 Y5.3929
G01 X5.5824 Y5.4014
G01 X5.6083 Y5.4153
G01 X5.6311 Y5.4339
G01 X5.6497 Y5.4567
G01 X5.6636 Y5.4826
G01 X5.6721 Y5.5107
G01 X5.6750 Y5.5400
G01 X6.1500
G01 X6.2830 Y5.5769
G01 X6.4194 Y5.5985
G01 X6.5573 Y5.6045
G01 X6.6950 Y5.5950
G01 X6.6650
G01 X6.6981 Y5.5781
G01 X6.7325 Y5.5641
G01 X6.7681 Y5.5532
G01 X6.8044 Y5.5454
G01 X6.8350 Y5.5450
G01 X8.3650
G01 X8.3930 Y5.5476
G01 X8.4199 Y5.5554
G01 X8.4450 Y5.5681
G01 X8.4672 Y5.5852
G01 X8.4859 Y5.6062
G01 X8.5003 Y5.6303
G01 X8.5100 Y5.6567
G01 X8.5146 Y5.6844
G01 X8.5143 Y6.3100
G01 X8.5094 Y6.3357
G01 X8.5001 Y6.3602
G01 X8.4866 Y6.3828
G01 X8.4695 Y6.4026
G01 X8.4492 Y6.4192
G01 X8.4263 Y6.4319
G01 X8.4015 Y6.4405
G01 X8.3756 Y6.4446
G01 Y6.6050
G00 Z5.0000 F500
G00 X9.3900 F3000
G00 Z0.5000 F500
G01 Z-0.1500 F120
G01 X9.4200 F240
G01 Y5.8161
G01 X8.7289 Y5.1250
G01 X8.4850
G01 X8.5150
G01 X8.4819 Y5.1419
G01 X8.4475 Y5.1559
G01 X8.4119 Y5.1668
G01 X8.3756 Y5.1746
G01 X8.3450 Y5.1750
G01 X6.8150
G01 X6.7870 Y5.1724
G01 X6.7601 Y5.1646
G01 X6.7350 Y5.1519
G01 X6.7128 Y5.1348
G01 X6.6941 Y5.1138
G01 X6.6797 Y5.0897
G01 X6.6700 Y5.0633
G01 X6.6654 Y5.0356
G01 X6.6650 Y4.4250
G01 X6.6657 Y4.4100
G01 X6.6720 Y4.3806
G01 X6.6838 Y4.3530
G01 X6.7008 Y4.3283
G01 X6.7223 Y4.3074
G01 X6.7475 Y4.2910
G01 X6.7754 Y4.2799
G01 X6.8050 Y4.2745
G01 X6.8350 Y4.2750
G01 X7.1900
G01 Y3.9500
G01 X7.1919 Y3.9116
G01 X7.2085 Y3.8401
G01 X7.2360 Y3.7720
G01 X7.2739 Y3.7090
G01 X7.3211 Y3.6528
G01 X9.5169 Y1.4569
G01 X9.5750 Y1.4087
G01 X9.6412 Y1.3723
G01 X9.7131 Y1.3493
G01 X9.7880 Y1.3405
G01 X11.7900 Y1.3400
G01 X11.8000 Y1.3300
G01 X11.8007 Y1.2750
G01 X11.8056 Y1.2493
G01 X11.8149 Y1.2248
G01 X11.8284 Y1.2022
G01 X11.8455 Y1.1824
G01 X11.8658 Y1.1658
G01 X11.8887 Y1.1531
G01 X11.9135 Y1.1445
G01 X11.9394 Y1.1404
G01 X12.4500 Y1.1400
G01 X12.4817 Y1.1436
G01 X12.5120 Y1.1537
G01 X12.5395 Y1.1699
G01 X12.5630 Y1.1914
G01 X12.5815 Y1.2175
G01 X12.5942 Y1.2468
G01 X12.6004 Y1.2781
G01 X12.6000 Y1.3100
G01 X12.5993 Y2.2050
G01 X12.5944 Y2.2307
G01 X12.5851 Y2.2552
G01 X12.5716 Y2.2778
G01 X12.5545 Y2.2976
G01 X12.5342 Y2.3142
G01 X12.5113 Y2.3269
G01 X12.4865 Y2.3355
G01 X12.4606 Y2.3396
G01 X11.9500 Y2.3400
G01 X11.9220 Y2.3374
G01 X11.8951 Y2.3296
G01 X11.8700 Y2.3169
G01 X11.8478 Y2.2998
G01 X11.8291 Y2.2788
G01 X11.8147 Y2.2547
G01 X11.8050 Y2.2283
G01 X11.8004 Y2.2006
G01 X11.8000 Y2.1500
G01 X11.7900 Y2.1400
G01 X9.9661
G01 X7.9900 Y4.1161
G01 Y4.2750
G01 X8.3800 Y4.2757
G01 X8.4125 Y4.2913
G01 X8.4459 Y4.3048
G01 X8.4801 Y4.3160
G01 X8.5150 Y4.3250
G01 X8.4850
G01 X8.8950
G01 X8.9780 Y4.3335
G01 X9.0575 Y4.3590
G01 X9.1299 Y4.4005
G01 X9.1922 Y4.4561
G01 X10.1031 Y5.3669
G01 X10.1555 Y5.4318
G01 X10.1934 Y5.5062
G01 X10.2152 Y5.5867
G01 X10.2200 Y5.6700
G01 Y11.1000
G01 X10.2164 Y11.1317
G01 X10.2063 Y11.1620
G01 X10.1901 Y11.1895
G01 X10.1686 Y11.2130
G01 X10.1425 Y11.2315
G01 X10.1132 Y11.2442
G01 X10.0819 Y11.2504
G01 X10.0500 Y11.2500
G01 X9.5550 Y11.2493
G01 X9.5293 Y11.2444
G01 X9.5048 Y11.2351
G01 X9.4822 Y11.2216
G01 X9.4624 Y11.2045
G01 X9.4458 Y11.1842
G01 X9.4331 Y11.1613
G01 X9.4245 Y11.1365
G01 X9.4204 Y11.1106
G01 X9.4200 Y11.0600
G01 X9.4100 Y11.0500
G01 X8.6200
G01 X8.6300
G01 X8.6044 Y11.0853
G01 X8.5715 Y11.1137
G01 X8.5328 Y11.1339
G01 X8.4906 Y11.1446
G01 X8.4900 Y11.8800
G01 X8.5000 Y11.8900
G01 X17.9919
G01 X20.3709 Y9.5111
G01 X20.4588 Y9.4405
G01 X20.5590 Y9.3888
G01 X20.6676 Y9.3582
G01 X20.7800 Y9.3500
G01 X21.8620
G01 X21.9697 Y9.2243
G01 X22.0941 Y9.1152
G01 X22.2328 Y9.0248
G01 X22.3828 Y8.9550
G01 X22.5506 Y8.9130
G01 X22.7231 Y8.9006
G01 X22.8951 Y8.9180
G01 X23.0616 Y8.9649
G01 X23.2175 Y9.0397
G01 X23.3582 Y9.1403
G01 X23.4794 Y9.2636
G01 X23.5776 Y9.4060
G01 X23.6497 Y9.5632
G01 X23.6937 Y9.7304
G01 X23.7082 Y9.9028
G01 X23.6928 Y10.0750
G01 X23.6479 Y10.2420
G01 X23.5749 Y10.3988
G01 X23.4759 Y10.5407
G01 X23.3540 Y10.6633
G01 X23.2128 Y10.7632
G01 X23.0565 Y10.8372
G01 X22.8898 Y10.8831
G01 X22.7176 Y10.8996
G01 X22.5942 Y10.8934
G01 X22.4724 Y10.8717
G01 X22.3544 Y10.8348
G01 X22.2419 Y10.7834
G01 X22.1368 Y10.7183
G01 X22.0408 Y10.6405
G01 X21.9552 Y10.5512
G01 X21.8816 Y10.4519
G01 X21.8566 Y10.4500
G01 X20.9881
G01 X18.6091 Y12.8289
G01 X18.5215 Y12.9000
G01 X18.4213 Y12.9519
G01 X18.3126 Y12.9823
G01 X18.2000 Y12.9900
G01 X8.0900
G01 X7.9873 Y12.9714
G01 X7.8835 Y12.9609
G01 X7.7792 Y12.9585
G01 X7.6750 Y12.9643
G01 X7.6493 Y12.9594
G01 X7.6248 Y12.9501
G01 X7.6022 Y12.9366
G01 X7.5824 Y12.9195
G01 X7.5658 Y12.8992
G01 X7.5531 Y12.8763
G01 X7.5445 Y12.8515
G01 X7.5404 Y12.8256
G01 X7.5407 Y12.0500
G01 X7.5460 Y12.0230
G01 X7.5561 Y11.9974
G01 X7.5707 Y11.9740
G01 X7.5894 Y11.9538
G01 X7.6114 Y11.9372
G01 X7.6361 Y11.9250
G01 X7.6626 Y11.9175
G01 X7.6900 Y11.9150
G01 Y11.1550
G01 X7.6604 Y11.1513
G01 X7.6320 Y11.1424
G01 X7.6057 Y11.1286
G01 X7.5822 Y11.1102
G01 X7.5623 Y11.0880
G01 X7.5468 Y11.0626
G01 X7.5360 Y11.0349
G01 X7.5304 Y11.0056
G01 X7.5300 Y10.9750
G01 Y10.2450
G01 X7.5330 Y10.2152
G01 X7.5397 Y10.1918
G01 X7.5502 Y10.1698
G01 X7.5641 Y10.1498
G01 X7.5810 Y10.1323
G01 X7.6005 Y10.1178
G01 X7.6222 Y10.1066
G01 X7.6453 Y10.0991
G01 X7.6694 Y10.0954
G01 X8.4800 Y10.0950
G01 X8.5099 Y10.0980
G01 X8.5386 Y10.1069
G01 X8.5649 Y10.1213
G01 X8.5878 Y10.1407
G01 X8.6065 Y10.1643
G01 X8.6200 Y10.1911
G01 X8.6280 Y10.2200
G01 X8.6300 Y10.2500
G01 X9.4100
G01 X9.4200 Y10.2400
G01 Y6.6050
G01 X9.3900
G00 Z5.0000 F500
G00 X9.3874 Y0.3950 F3000
G00 Z0.5000 F500
G01 Z-0.1500 F120
G01 Y0.2563 F240
G01 X0.2500 Y0.2600
G01 Y14.8400
G01 X0.2600 Y14.8500
G01 X24.8400
G01 X24.8500 Y14.8400
G01 Y0.2600
G01 X24.8400 Y0.2500
G01 X9.3874 Y0.2563
G01 Y0.3950
G00 Z5.0000 F500


;No. 2: Part 11
M05
M00 
;Change tool: CNC
M03
G00 X-0.9000 Y0.1000 Z5.0000 F3000
G00 Z0.5000 F500
G01 Z-0.7000 F120
G01 X-0.8950 Y0.0002
G01 X-0.8593 Y-0.1825
G01 X-0.7903 Y-0.3553
G01 X-0.6905 Y-0.5124
G01 X-0.5634 Y-0.6483
G01 X-0.4133 Y-0.7582
G01 X-0.2454 Y-0.8385
G01 X-0.0656 Y-0.8863
G01 X0.1200 Y-0.9000
G01 X25.0000
G01 X25.1975 Y-0.8803
G01 X25.3873 Y-0.8219
G01 X25.5618 Y-0.7272
G01 X25.7142 Y-0.6000
G01 X25.8384 Y-0.4451
G01 X25.9296 Y-0.2688
G01 X25.9842 Y-0.0779
G01 X26.0000 Y0.1200
G01 Y15.0000
G01 X25.9803 Y15.1975
G01 X25.9219 Y15.3873
G01 X25.8272 Y15.5618
G01 X25.7000 Y15.7142
G01 X25.5451 Y15.8384
G01 X25.3688 Y15.9296
G01 X25.1779 Y15.9842
G01 X24.9800 Y16.0000
G01 X0.1000
G01 X-0.0864 Y15.9825
G01 X-0.2663 Y15.9305
G01 X-0.4333 Y15.8459
G01 X-0.5816 Y15.7317
G01 X-0.7061 Y15.5918
G01 X-0.8023 Y15.4312
G01 X-0.8668 Y15.2554
G01 X-0.8975 Y15.0707
G01 X-0.9000 Y14.9800
G01 Y0.1000
G01 Z-1.4000
G01 X-0.8950 Y0.0002
G01 X-0.8593 Y-0.1825
G01 X-0.7903 Y-0.3553
G01 X-0.6905 Y-0.5124
G01 X-0.5634 Y-0.6483
G01 X-0.4133 Y-0.7582
G01 X-0.2454 Y-0.8385
G01 X-0.0656 Y-0.8863
G01 X0.1200 Y-0.9000
G01 X25.0000
G01 X25.1975 Y-0.8803
G01 X25.3873 Y-0.8219
G01 X25.5618 Y-0.7272
G01 X25.7142 Y-0.6000
G01 X25.8384 Y-0.4451
G01 X25.9296 Y-0.2688
G01 X25.9842 Y-0.0779
G01 X26.0000 Y0.1200
G01 Y15.0000
G01 X25.9803 Y15.1975
G01 X25.9219 Y15.3873
G01 X25.8272 Y15.5618
G01 X25.7000 Y15.7142
G01 X25.5451 Y15.8384
G01 X25.3688 Y15.9296
G01 X25.1779 Y15.9842
G01 X24.9800 Y16.0000
G01 X0.1000
G01 X-0.0864 Y15.9825
G01 X-0.2663 Y15.9305
G01 X-0.4333 Y15.8459
G01 X-0.5816 Y15.7317
G01 X-0.7061 Y15.5918
G01 X-0.8023 Y15.4312
G01 X-0.8668 Y15.2554
G01 X-0.8975 Y15.0707
G01 X-0.9000 Y14.9800
G01 Y0.1000
G01 Z-2.0000
G01 X-0.8950 Y0.0002
G01 X-0.8593 Y-0.1825
G01 X-0.7903 Y-0.3553
G01 X-0.6905 Y-0.5124
G01 X-0.5634 Y-0.6483
G01 X-0.4133 Y-0.7582
G01 X-0.2454 Y-0.8385
G01 X-0.0656 Y-0.8863
G01 X0.1200 Y-0.9000
G01 X25.0000
G01 X25.1975 Y-0.8803
G01 X25.3873 Y-0.8219
G01 X25.5618 Y-0.7272
G01 X25.7142 Y-0.6000
G01 X25.8384 Y-0.4451
G01 X25.9296 Y-0.2688
G01 X25.9842 Y-0.0779
G01 X26.0000 Y0.1200
G01 Y15.0000
G01 X25.9803 Y15.1975
G01 X25.9219 Y15.3873
G01 X25.8272 Y15.5618
G01 X25.7000 Y15.7142
G01 X25.5451 Y15.8384
G01 X25.3688 Y15.9296
G01 X25.1779 Y15.9842
G01 X24.9800 Y16.0000
G01 X0.1000
G01 X-0.0864 Y15.9825
G01 X-0.2663 Y15.9305
G01 X-0.4333 Y15.8459
G01 X-0.5816 Y15.7317
G01 X-0.7061 Y15.5918
G01 X-0.8023 Y15.4312
G01 X-0.8668 Y15.2554
G01 X-0.8975 Y15.0707
G01 X-0.9000 Y14.9800
G01 Y0.1000
G00 Z5.0000 F500
G00 X0.0000 Y0.0000 F3000

M05
